;Project Endleiste_Klappe_4mm_Balsa_2Stk_Gespiegelt
;Created by Estlcam version 9 build 10,007
;Machining time about 00:10:42 hours

G90
M03 S24000
G00 Z5.0000


;No. 1: Ausschnitt 8
G00 X1.5000 Y0.5000
G00 Z0.5000
G01 Z-1.0000 F200 S24000
G01 X0.5000 F1200
G01 X0.3536 Y0.3536
G01 X0.5000 Y0.5000
G01 Y29.5000
G01 X0.3536 Y29.6464
G01 X0.5000 Y29.5000
G01 X1.5000
G01 X1.6464 Y29.6464
G01 X1.5000 Y29.5000
G01 Y0.5000
G01 X1.6464 Y0.3536
G01 X1.5000 Y0.5000
G00 Z5.0000


;No. 2: Ausschnitt 1
G00 X33.3333 Y10.5000 Z5.0000
G00 Z0.5000
G01 Z-2.1000 F200
G01 X15.0098 F1200
G02 X10.5000 Y15.0098 I-0.0088 J4.5010
G01 Y21.9902
G02 X15.0200 Y26.5000 I4.5010 J0.0088
G01 X33.3384
G00 Z0.0000
G01 X36.3384
G01 Z-2.1000 F200
G01 X54.6568 F1200
G02 X59.1667 Y21.9902 I0.0088 J-4.5010
G01 Y15.0098
G02 X54.6568 Y10.5000 I-4.5010 J-0.0088
G01 X36.3333
G00 Z0.0000
G01 X33.3333
G00 Z-1.6000
G01 Z-4.1000 F200
G01 X15.0098 F1200
G02 X10.5000 Y15.0098 I-0.0088 J4.5010
G01 Y21.9902
G02 X15.0200 Y26.5000 I4.5010 J0.0088
G01 X33.3384
G00 Z0.0000
G01 X36.3384
G00 Z-1.6000
G01 Z-4.1000 F200
G01 X54.6568 F1200
G02 X59.1667 Y21.9902 I0.0088 J-4.5010
G01 Y15.0098
G02 X54.6568 Y10.5000 I-4.5010 J-0.0088
G01 X36.3333
G00 Z0.0000
G01 X33.3333
G00 Z5.0000


;No. 3: Ausschnitt 9
G00 X69.1667 Y0.5000 Z5.0000
G00 Z0.5000
G01 Z-1.0000 F200
G01 X68.1667 F1200
G01 X68.0202 Y0.3536
G01 X68.1667 Y0.5000
G01 Y29.5000
G01 X68.0202 Y29.6464
G01 X68.1667 Y29.5000
G01 X69.1667
G01 X69.3131 Y29.6464
G01 X69.1667 Y29.5000
G01 Y0.5000
G01 X69.3131 Y0.3536
G01 X69.1667 Y0.5000
G00 Z5.0000


;No. 4: Ausschnitt 2
G00 X101.0000 Y10.5000 Z5.0000
G00 Z0.5000
G01 Z-2.1000 F200
G01 X82.6765 F1200
G02 X78.1667 Y15.0098 I-0.0088 J4.5010
G01 Y21.9902
G02 X82.6765 Y26.5000 I4.5010 J0.0088
G01 X101.0000
G00 Z0.0000
G01 X104.0000
G01 Z-2.1000 F200
G01 X122.3235 F1200
G02 X126.8333 Y21.9902 I0.0088 J-4.5010
G01 Y15.0098
G02 X122.3235 Y10.5000 I-4.5010 J-0.0088
G01 X104.0000
G00 Z0.0000
G01 X101.0000
G00 Z-1.6000
G01 Z-4.1000 F200
G01 X82.6765 F1200
G02 X78.1667 Y15.0098 I-0.0088 J4.5010
G01 Y21.9902
G02 X82.6765 Y26.5000 I4.5010 J0.0088
G01 X101.0000
G00 Z0.0000
G01 X104.0000
G00 Z-1.6000
G01 Z-4.1000 F200
G01 X122.3235 F1200
G02 X126.8333 Y21.9902 I0.0088 J-4.5010
G01 Y15.0098
G02 X122.3235 Y10.5000 I-4.5010 J-0.0088
G01 X104.0000
G00 Z0.0000
G01 X101.0000
G00 Z5.0000


;No. 5: Ausschnitt 10
G00 X136.8333 Y0.5000 Z5.0000
G00 Z0.5000
G01 Z-1.0000 F200
G01 X135.8333 F1200
G01 X135.6869 Y0.3536
G01 X135.8333 Y0.5000
G01 Y29.5000
G01 X135.6869 Y29.6464
G01 X135.8333 Y29.5000
G01 X136.8333
G01 X136.9798 Y29.6464
G01 X136.8333 Y29.5000
G01 Y0.5000
G01 X136.9798 Y0.3536
G01 X136.8333 Y0.5000
G00 Z5.0000


;No. 6: Ausschnitt 3
G00 X168.6667 Y10.5000 Z5.0000
G00 Z0.5000
G01 Z-2.1000 F200
G01 X150.3432 F1200
G02 X145.8333 Y15.0098 I-0.0088 J4.5010
G01 Y21.9902
G02 X150.3432 Y26.5000 I4.5010 J0.0088
G01 X168.6667
G00 Z0.0000
G01 X171.6667
G01 Z-2.1000 F200
G01 X189.9902 F1200
G02 X194.5000 Y21.9902 I0.0088 J-4.5010
G01 Y15.0098
G02 X189.9902 Y10.5000 I-4.5010 J-0.0088
G01 X171.6667
G00 Z0.0000
G01 X168.6667
G00 Z-1.6000
G01 Z-4.1000 F200
G01 X150.3432 F1200
G02 X145.8333 Y15.0098 I-0.0088 J4.5010
G01 Y21.9902
G02 X150.3432 Y26.5000 I4.5010 J0.0088
G01 X168.6667
G00 Z0.0000
G01 X171.6667
G00 Z-1.6000
G01 Z-4.1000 F200
G01 X189.9902 F1200
G02 X194.5000 Y21.9902 I0.0088 J-4.5010
G01 Y15.0098
G02 X189.9902 Y10.5000 I-4.5010 J-0.0088
G01 X171.6667
G00 Z0.0000
G01 X168.6667
G00 Z5.0000


;No. 7: Ausschnitt 11
G00 X204.5000 Y0.5000 Z5.0000
G00 Z0.5000
G01 Z-1.0000 F200
G01 X203.5000 F1200
G01 X203.3536 Y0.3536
G01 X203.5000 Y0.5000
G01 Y29.5000
G01 X203.3536 Y29.6464
G01 X203.5000 Y29.5000
G01 X204.5000
G01 X204.6464 Y29.6464
G01 X204.5000 Y29.5000
G01 Y0.5000
G01 X204.6464 Y0.3536
G01 X204.5000 Y0.5000
G00 Z5.0000


;No. 8: Ausschnitt 4
G00 X236.3333 Y10.5000 Z5.0000
G00 Z0.5000
G01 Z-2.1000 F200
G01 X218.0098 F1200
G02 X213.5000 Y15.0098 I-0.0088 J4.5010
G01 Y21.9902
G02 X218.0098 Y26.5000 I4.5010 J0.0088
G01 X236.3333
G00 Z0.0000
G01 X239.3333
G01 Z-2.1000 F200
G01 X257.6568 F1200
G02 X262.1667 Y21.9902 I0.0088 J-4.5010
G01 Y15.0098
G02 X257.6568 Y10.5000 I-4.5010 J-0.0088
G01 X239.3333
G00 Z0.0000
G01 X236.3333
G00 Z-1.6000
G01 Z-4.1000 F200
G01 X218.0098 F1200
G02 X213.5000 Y15.0098 I-0.0088 J4.5010
G01 Y21.9902
G02 X218.0098 Y26.5000 I4.5010 J0.0088
G01 X236.3333
G00 Z0.0000
G01 X239.3333
G00 Z-1.6000
G01 Z-4.1000 F200
G01 X257.6568 F1200
G02 X262.1667 Y21.9902 I0.0088 J-4.5010
G01 Y15.0098
G02 X257.6568 Y10.5000 I-4.5010 J-0.0088
G01 X239.3333
G00 Z0.0000
G01 X236.3333
G00 Z5.0000


;No. 9: Ausschnitt 12
G00 X272.1667 Y0.5000 Z5.0000
G00 Z0.5000
G01 Z-1.0000 F200
G01 X271.1667 F1200
G01 X271.0202 Y0.3536
G01 X271.1667 Y0.5000
G01 Y29.5000
G01 X271.0202 Y29.6464
G01 X271.1667 Y29.5000
G01 X272.1667
G01 X272.3131 Y29.6464
G01 X272.1667 Y29.5000
G01 Y0.5000
G01 X272.3131 Y0.3536
G01 X272.1667 Y0.5000
G00 Z5.0000


;No. 10: Ausschnitt 5
G00 X304.0000 Y10.5000 Z5.0000
G00 Z0.5000
G01 Z-2.1000 F200
G01 X285.6765 F1200
G02 X281.1667 Y15.0098 I-0.0088 J4.5010
G01 Y21.9902
G02 X285.6765 Y26.5000 I4.5010 J0.0088
G01 X304.0000
G00 Z0.0000
G01 X307.0000
G01 Z-2.1000 F200
G01 X325.3235 F1200
G02 X329.8333 Y21.9902 I0.0088 J-4.5010
G01 Y15.0098
G02 X325.3235 Y10.5000 I-4.5010 J-0.0088
G01 X307.0000
G00 Z0.0000
G01 X304.0000
G00 Z-1.6000
G01 Z-4.1000 F200
G01 X285.6765 F1200
G02 X281.1667 Y15.0098 I-0.0088 J4.5010
G01 Y21.9902
G02 X285.6765 Y26.5000 I4.5010 J0.0088
G01 X304.0000
G00 Z0.0000
G01 X307.0000
G00 Z-1.6000
G01 Z-4.1000 F200
G01 X325.3235 F1200
G02 X329.8333 Y21.9902 I0.0088 J-4.5010
G01 Y15.0098
G02 X325.3235 Y10.5000 I-4.5010 J-0.0088
G01 X307.0000
G00 Z0.0000
G01 X304.0000
G00 Z5.0000


;No. 11: Ausschnitt 13
G00 X339.8333 Y0.5000 Z5.0000
G00 Z0.5000
G01 Z-1.0000 F200
G01 X338.8333 F1200
G01 X338.6869 Y0.3536
G01 X338.8333 Y0.5000
G01 Y29.5000
G01 X338.6869 Y29.6464
G01 X338.8333 Y29.5000
G01 X339.8333
G01 X339.9798 Y29.6464
G01 X339.8333 Y29.5000
G01 Y0.5000
G01 X339.9798 Y0.3536
G01 X339.8333 Y0.5000
G00 Z5.0000


;No. 12: Ausschnitt 6
G00 X371.6667 Y10.5000 Z5.0000
G00 Z0.5000
G01 Z-2.1000 F200
G01 X353.3432 F1200
G02 X348.8333 Y15.0098 I-0.0088 J4.5010
G01 Y21.9902
G02 X353.3432 Y26.5000 I4.5010 J0.0088
G01 X371.6667
G00 Z0.0000
G01 X374.6667
G01 Z-2.1000 F200
G01 X392.9902 F1200
G02 X397.5000 Y21.9902 I0.0088 J-4.5010
G01 Y15.0098
G02 X392.9902 Y10.5000 I-4.5010 J-0.0088
G01 X374.6667
G00 Z0.0000
G01 X371.6667
G00 Z-1.6000
G01 Z-4.1000 F200
G01 X353.3432 F1200
G02 X348.8333 Y15.0098 I-0.0088 J4.5010
G01 Y21.9902
G02 X353.3432 Y26.5000 I4.5010 J0.0088
G01 X371.6667
G00 Z0.0000
G01 X374.6667
G00 Z-1.6000
G01 Z-4.1000 F200
G01 X392.9902 F1200
G02 X397.5000 Y21.9902 I0.0088 J-4.5010
G01 Y15.0098
G02 X392.9902 Y10.5000 I-4.5010 J-0.0088
G01 X374.6667
G00 Z0.0000
G01 X371.6667
G00 Z5.0000


;No. 13: Ausschnitt 14
G00 X407.5000 Y0.5000 Z5.0000
G00 Z0.5000
G01 Z-1.0000 F200
G01 X406.5000 F1200
G01 X406.3536 Y0.3536
G01 X406.5000 Y0.5000
G01 Y29.5000
G01 X406.3536 Y29.6464
G01 X406.5000 Y29.5000
G01 X407.5000
G01 X407.6464 Y29.6464
G01 X407.5000 Y29.5000
G01 Y0.5000
G01 X407.6464 Y0.3536
G01 X407.5000 Y0.5000
G00 Z5.0000


;No. 14: Ausschnitt 7
G00 X433.0000 Y10.5000 Z5.0000
G00 Z0.5000
G01 Z-2.1000 F200
G01 X421.0098 F1200
G02 X416.5000 Y15.0098 I-0.0088 J4.5010
G01 Y21.9902
G02 X421.0098 Y26.5000 I4.5010 J0.0088
G01 X433.0000
G00 Z0.0000
G01 X436.0000
G01 Z-2.1000 F200
G01 X447.9902 F1200
G02 X452.5000 Y21.9902 I0.0088 J-4.5010
G01 Y15.0098
G02 X447.9902 Y10.5000 I-4.5010 J-0.0088
G01 X436.0000
G00 Z0.0000
G01 X433.0000
G00 Z-1.6000
G01 Z-4.1000 F200
G01 X421.0098 F1200
G02 X416.5000 Y15.0098 I-0.0088 J4.5010
G01 Y21.9902
G02 X421.0098 Y26.5000 I4.5010 J0.0088
G01 X433.0000
G00 Z0.0000
G01 X436.0000
G00 Z-1.6000
G01 Z-4.1000 F200
G01 X447.9902 F1200
G02 X452.5000 Y21.9902 I0.0088 J-4.5010
G01 Y15.0098
G02 X447.9902 Y10.5000 I-4.5010 J-0.0088
G01 X436.0000
G00 Z0.0000
G01 X433.0000
G00 Z5.0000


;No. 15: Ausschnitt 15
G00 X462.5000 Y0.5000 Z5.0000
G00 Z0.5000
G01 Z-1.0000 F200
G01 X461.5000 F1200
G01 X461.3536 Y0.3536
G01 X461.5000 Y0.5000
G01 Y29.5000
G01 X461.3536 Y29.6464
G01 X461.5000 Y29.5000
G01 X462.5000
G01 X462.6464 Y29.6464
G01 X462.5000 Y29.5000
G01 Y0.5000
G01 X462.6464 Y0.3536
G01 X462.5000 Y0.5000
G00 Z5.0000


;No. 16: Teil 1
G00 X33.3233 Y35.5000 Z5.0000
G00 Z0.5000
G01 Z-2.1000 F200
G01 X2.0000 F1200
G03 X1.5000 Y34.9800 I0.0003 J-0.5006
G01 Y30.5000
G01 X1.6464 Y30.3536
G01 X1.5000 Y30.5000
G01 X0.0000
G03 X-0.5000 Y29.9800 I0.0003 J-0.5006
G01 Y0.0000
G03 X0.0200 Y-0.5000 I0.5006 J0.0003
G01 X102.5906
G00 Z0.0000
G01 X105.5906
G01 Z-2.1000 F200
G01 X230.0100 F1200
G00 Z0.0000
G01 X233.0100
G01 Z-2.1000 F200
G01 X368.2221 F1200
G00 Z0.0000
G01 X371.2221
G01 Z-2.1000 F200
G01 X463.0000 F1200
G03 X463.5000 Y0.0200 I-0.0003 J0.5006
G01 Y30.0000
G03 X462.9800 Y30.5000 I-0.5006 J-0.0003
G01 X461.5000
G01 X461.3536 Y30.3536
G01 X461.5000 Y30.5000
G01 Y35.0000
G03 X460.9800 Y35.5000 I-0.5006 J-0.0003
G01 X435.9900
G00 Z0.0000
G01 X432.9900
G01 Z-2.1000 F200
G01 X408.0000 F1200
G03 X407.5000 Y34.9800 I0.0003 J-0.5006
G01 Y30.5000
G01 X407.6464 Y30.3536
G01 X407.5000 Y30.5000
G01 X406.5000
G01 X406.3536 Y30.3536
G01 X406.5000 Y30.5000
G01 Y35.0000
G03 X405.9800 Y35.5000 I-0.5006 J-0.0003
G01 X340.3333
G03 X339.8333 Y34.9800 I0.0003 J-0.5006
G01 Y30.5000
G01 X339.9798 Y30.3536
G01 X339.8333 Y30.5000
G01 X338.8333
G01 X338.6869 Y30.3536
G01 X338.8333 Y30.5000
G01 Y35.0000
G03 X338.3133 Y35.5000 I-0.5006 J-0.0003
G01 X306.9900
G00 Z0.0000
G01 X303.9900
G01 Z-2.1000 F200
G01 X272.6667 F1200
G03 X272.1667 Y34.9800 I0.0003 J-0.5006
G01 Y30.5000
G01 X272.3131 Y30.3536
G01 X272.1667 Y30.5000
G01 X271.1667
G01 X271.0202 Y30.3536
G01 X271.1667 Y30.5000
G01 Y35.0000
G03 X270.6467 Y35.5000 I-0.5006 J-0.0003
G01 X205.0000
G03 X204.5000 Y34.9800 I0.0003 J-0.5006
G01 Y30.5000
G01 X204.6464 Y30.3536
G01 X204.5000 Y30.5000
G01 X203.5000
G01 X203.3536 Y30.3536
G01 X203.5000 Y30.5000
G01 Y35.0000
G03 X202.9800 Y35.5000 I-0.5006 J-0.0003
G01 X171.6567
G00 Z0.0000
G01 X168.6567
G01 Z-2.1000 F200
G01 X137.3333 F1200
G03 X136.8333 Y34.9800 I0.0003 J-0.5006
G01 Y30.5000
G01 X136.9798 Y30.3536
G01 X136.8333 Y30.5000
G01 X135.8333
G01 X135.6869 Y30.3536
G01 X135.8333 Y30.5000
G01 Y35.0000
G03 X135.3133 Y35.5000 I-0.5006 J-0.0003
G01 X69.6667
G03 X69.1667 Y34.9800 I0.0003 J-0.5006
G01 Y30.5000
G01 X69.3131 Y30.3536
G01 X69.1667 Y30.5000
G01 X68.1667
G01 X68.0202 Y30.3536
G01 X68.1667 Y30.5000
G01 Y35.0000
G03 X67.6467 Y35.5000 I-0.5006 J-0.0003
G01 X36.3233
G00 Z0.0000
G01 X33.3233
G00 Z-1.6000
G01 Z-4.1000 F200
G01 X2.0000 F1200
G03 X1.5000 Y34.9800 I0.0003 J-0.5006
G01 Y30.5000
G01 X1.6464 Y30.3536
G01 X1.5000 Y30.5000
G01 X0.0000
G03 X-0.5000 Y29.9800 I0.0003 J-0.5006
G01 Y0.0000
G03 X0.0200 Y-0.5000 I0.5006 J0.0003
G01 X102.5906
G00 Z0.0000
G01 X105.5906
G00 Z-1.6000
G01 Z-4.1000 F200
G01 X230.0100 F1200
G00 Z0.0000
G01 X233.0100
G00 Z-1.6000
G01 Z-4.1000 F200
G01 X368.2221 F1200
G00 Z0.0000
G01 X371.2221
G00 Z-1.6000
G01 Z-4.1000 F200
G01 X463.0000 F1200
G03 X463.5000 Y0.0200 I-0.0003 J0.5006
G01 Y30.0000
G03 X462.9800 Y30.5000 I-0.5006 J-0.0003
G01 X461.5000
G01 X461.3536 Y30.3536
G01 X461.5000 Y30.5000
G01 Y35.0000
G03 X460.9800 Y35.5000 I-0.5006 J-0.0003
G01 X435.9900
G00 Z0.0000
G01 X432.9900
G00 Z-1.6000
G01 Z-4.1000 F200
G01 X408.0000 F1200
G03 X407.5000 Y34.9800 I0.0003 J-0.5006
G01 Y30.5000
G01 X407.6464 Y30.3536
G01 X407.5000 Y30.5000
G01 X406.5000
G01 X406.3536 Y30.3536
G01 X406.5000 Y30.5000
G01 Y35.0000
G03 X405.9800 Y35.5000 I-0.5006 J-0.0003
G01 X340.3333
G03 X339.8333 Y34.9800 I0.0003 J-0.5006
G01 Y30.5000
G01 X339.9798 Y30.3536
G01 X339.8333 Y30.5000
G01 X338.8333
G01 X338.6869 Y30.3536
G01 X338.8333 Y30.5000
G01 Y35.0000
G03 X338.3133 Y35.5000 I-0.5006 J-0.0003
G01 X306.9900
G00 Z0.0000
G01 X303.9900
G00 Z-1.6000
G01 Z-4.1000 F200
G01 X272.6667 F1200
G03 X272.1667 Y34.9800 I0.0003 J-0.5006
G01 Y30.5000
G01 X272.3131 Y30.3536
G01 X272.1667 Y30.5000
G01 X271.1667
G01 X271.0202 Y30.3536
G01 X271.1667 Y30.5000
G01 Y35.0000
G03 X270.6467 Y35.5000 I-0.5006 J-0.0003
G01 X205.0000
G03 X204.5000 Y34.9800 I0.0003 J-0.5006
G01 Y30.5000
G01 X204.6464 Y30.3536
G01 X204.5000 Y30.5000
G01 X203.5000
G01 X203.3536 Y30.3536
G01 X203.5000 Y30.5000
G01 Y35.0000
G03 X202.9800 Y35.5000 I-0.5006 J-0.0003
G01 X171.6567
G00 Z0.0000
G01 X168.6567
G00 Z-1.6000
G01 Z-4.1000 F200
G01 X137.3333 F1200
G03 X136.8333 Y34.9800 I0.0003 J-0.5006
G01 Y30.5000
G01 X136.9798 Y30.3536
G01 X136.8333 Y30.5000
G01 X135.8333
G01 X135.6869 Y30.3536
G01 X135.8333 Y30.5000
G01 Y35.0000
G03 X135.3133 Y35.5000 I-0.5006 J-0.0003
G01 X69.6667
G03 X69.1667 Y34.9800 I0.0003 J-0.5006
G01 Y30.5000
G01 X69.3131 Y30.3536
G01 X69.1667 Y30.5000
G01 X68.1667
G01 X68.0202 Y30.3536
G01 X68.1667 Y30.5000
G01 Y35.0000
G03 X67.6467 Y35.5000 I-0.5006 J-0.0003
G01 X36.3233
G00 Z0.0000
G01 X33.3233
G00 Z5.0000
G00 X0.0000 Y0.0000

M05
