;Project Flaechenauflage_4mm_Sperrholz
;Created by Estlcam version 9 build 10,007
;Machining time about 00:04:50 hours

G90
M03 S24000
G00 Z5.0000


;No. 1: Ausschnitt 1
G00 X16.0000 Y17.0000
G00 Z0.5000
G01 Z-1.5000 F200 S24000
G01 Y19.0000 F800
G01 X15.7071 Y19.2929
G01 X16.0000 Y19.0000
G01 X54.0000
G01 X54.2929 Y19.2929
G01 X54.0000 Y19.0000
G01 Y17.0000
G01 X54.2929 Y16.7071
G01 X54.0000 Y17.0000
G01 X16.0000
G01 X15.7071 Y16.7071
G01 X16.0000 Y17.0000
G01 Z-3.0000 F200
G01 Y19.0000 F800
G01 X15.7071 Y19.2929
G01 X16.0000 Y19.0000
G01 X54.0000
G01 X54.2929 Y19.2929
G01 X54.0000 Y19.0000
G01 Y17.0000
G01 X54.2929 Y16.7071
G01 X54.0000 Y17.0000
G01 X16.0000
G01 X15.7071 Y16.7071
G01 X16.0000 Y17.0000
G01 Z-4.1000 F200
G01 Y19.0000 F800
G01 X15.7071 Y19.2929
G01 X16.0000 Y19.0000
G01 X54.0000
G01 X54.2929 Y19.2929
G01 X54.0000 Y19.0000
G01 Y17.0000
G01 X54.2929 Y16.7071
G01 X54.0000 Y17.0000
G01 X16.0000
G01 X15.7071 Y16.7071
G01 X16.0000 Y17.0000
G00 Z5.0000


;No. 2: Ausschnitt 2
G00 X186.0000 Y17.0000 Z5.0000
G00 Z0.5000
G01 Z-1.5000 F200
G01 Y19.0000 F800
G01 X185.7071 Y19.2929
G01 X186.0000 Y19.0000
G01 X224.0000
G01 X224.2929 Y19.2929
G01 X224.0000 Y19.0000
G01 Y17.0000
G01 X224.2929 Y16.7071
G01 X224.0000 Y17.0000
G01 X186.0000
G01 X185.7071 Y16.7071
G01 X186.0000 Y17.0000
G01 Z-3.0000 F200
G01 Y19.0000 F800
G01 X185.7071 Y19.2929
G01 X186.0000 Y19.0000
G01 X224.0000
G01 X224.2929 Y19.2929
G01 X224.0000 Y19.0000
G01 Y17.0000
G01 X224.2929 Y16.7071
G01 X224.0000 Y17.0000
G01 X186.0000
G01 X185.7071 Y16.7071
G01 X186.0000 Y17.0000
G01 Z-4.1000 F200
G01 Y19.0000 F800
G01 X185.7071 Y19.2929
G01 X186.0000 Y19.0000
G01 X224.0000
G01 X224.2929 Y19.2929
G01 X224.0000 Y19.0000
G01 Y17.0000
G01 X224.2929 Y16.7071
G01 X224.0000 Y17.0000
G01 X186.0000
G01 X185.7071 Y16.7071
G01 X186.0000 Y17.0000
G00 Z5.0000


;No. 3: Teil 1
G00 X87.1991 Y23.8710 Z5.0000
G00 Z0.5000
G01 Z-1.5000 F200
G03 X76.4110 Y23.5832 I30.1531 J-1332.3403 F800
G02 X48.1742 Y23.1437 I-24.7501 J682.8975
G02 X38.9747 Y23.1900 I-2.7271 J371.9817
G02 X22.0660 Y24.0448 I9.2392 J350.4488
G02 X14.6088 Y24.8965 I12.0029 J138.1531
G02 X5.8237 Y26.7858 I7.4105 J55.8287
G02 X2.6278 Y28.6073 I2.0183 J7.2556
G01 X1.9576 Y29.2276
G02 X0.9811 Y30.2553 I3.6451 J4.4415
G03 X-1.0000 Y29.9800 I-0.9733 J-0.2616
G01 Y0.0000
G03 X0.0200 Y-1.0000 I1.0003 J0.0001
G01 X45.5486
G01 X48.5486
G01 X225.5833
G01 X228.5833
G01 X250.0000
G03 X251.0000 Y0.0200 I-0.0001 J1.0003
G01 Y30.0000
G03 X249.9310 Y30.9978 I-1.0003 J-0.0002
G02 X233.0683 Y30.1852 I-393.4670 J7989.4428
G01 X232.7218 Y30.1687
G01 X230.0716 Y30.0443
G01 X229.2662 Y30.0064
G01 X222.3745 Y29.6861
G03 X188.5226 Y28.0930 I301.1742 J-6760.1202
G02 X151.6325 Y26.3692 I-202.1211 J3930.0050
G02 X99.8617 Y24.1853 I-157.9353 J3129.1161
G02 X90.1983 Y23.9407 I-42.3430 J1482.0443
G01 X87.1991 Y23.8710
G01 Z-3.0000 F200
G03 X76.4110 Y23.5832 I30.1531 J-1332.3403 F800
G02 X48.1742 Y23.1437 I-24.7501 J682.8975
G02 X38.9747 Y23.1900 I-2.7271 J371.9817
G02 X22.0660 Y24.0448 I9.2392 J350.4488
G02 X14.6088 Y24.8965 I12.0029 J138.1531
G02 X5.8237 Y26.7858 I7.4105 J55.8287
G02 X2.6278 Y28.6073 I2.0183 J7.2556
G01 X1.9576 Y29.2276
G02 X0.9811 Y30.2553 I3.6451 J4.4415
G03 X-1.0000 Y29.9800 I-0.9733 J-0.2616
G01 Y0.0000
G03 X0.0200 Y-1.0000 I1.0003 J0.0001
G01 X45.5486
G00 Z-2.1000
G01 X48.5486
G01 Z-3.0000 F200
G01 X225.5833 F800
G00 Z-2.1000
G01 X228.5833
G01 Z-3.0000 F200
G01 X250.0000 F800
G03 X251.0000 Y0.0200 I-0.0001 J1.0003
G01 Y30.0000
G03 X249.9310 Y30.9978 I-1.0003 J-0.0002
G02 X233.0683 Y30.1852 I-393.4670 J7989.4428
G00 Z-2.1000
G01 X232.7218 Y30.1687
G01 X230.0716 Y30.0443
G01 Z-3.0000 F200
G01 X229.2662 Y30.0064 F800
G01 X222.3745 Y29.6861
G03 X188.5226 Y28.0930 I301.1742 J-6760.1202
G02 X151.6325 Y26.3692 I-202.1211 J3930.0050
G02 X99.8617 Y24.1853 I-157.9353 J3129.1161
G02 X90.1983 Y23.9407 I-42.3430 J1482.0443
G00 Z-2.1000
G01 X87.1991 Y23.8710
G00 Z-2.5000
G01 Z-4.1000 F200
G03 X76.4110 Y23.5832 I30.1531 J-1332.3403 F800
G02 X48.1742 Y23.1437 I-24.7501 J682.8975
G02 X38.9747 Y23.1900 I-2.7271 J371.9817
G02 X22.0660 Y24.0448 I9.2392 J350.4488
G02 X14.6088 Y24.8965 I12.0029 J138.1531
G02 X5.8237 Y26.7858 I7.4105 J55.8287
G02 X2.6278 Y28.6073 I2.0183 J7.2556
G01 X1.9576 Y29.2276
G02 X0.9811 Y30.2553 I3.6451 J4.4415
G03 X-1.0000 Y29.9800 I-0.9733 J-0.2616
G01 Y0.0000
G03 X0.0200 Y-1.0000 I1.0003 J0.0001
G01 X45.5486
G00 Z-2.1000
G01 X48.5486
G00 Z-2.5000
G01 Z-4.1000 F200
G01 X225.5833 F800
G00 Z-2.1000
G01 X228.5833
G00 Z-2.5000
G01 Z-4.1000 F200
G01 X250.0000 F800
G03 X251.0000 Y0.0200 I-0.0001 J1.0003
G01 Y30.0000
G03 X249.9310 Y30.9978 I-1.0003 J-0.0002
G02 X233.0683 Y30.1852 I-393.4670 J7989.4428
G00 Z-2.1000
G01 X232.7218 Y30.1687
G01 X230.0716 Y30.0443
G00 Z-2.5000
G01 Z-4.1000 F200
G01 X229.2662 Y30.0064 F800
G01 X222.3745 Y29.6861
G03 X188.5226 Y28.0930 I301.1742 J-6760.1202
G02 X151.6325 Y26.3692 I-202.1211 J3930.0050
G02 X99.8617 Y24.1853 I-157.9353 J3129.1161
G02 X90.1983 Y23.9407 I-42.3430 J1482.0443
G00 Z-2.1000
G01 X87.1991 Y23.8710
G00 Z5.0000
G00 X0.0000 Y0.0000

M05
