;Project RippeKlappe_4mm_Balsa_16Stk
;Created by Estlcam version 9 build 10,007
;Machining time about 00:00:15 hours

G90
M03 S24000
G00 Z5.0000


;No. 1: Teil 1
G00 X11.1971 Y14.8764
G00 Z0.5000
G01 Z-2.1000 F200 S24000
G01 X-0.2000 Y16.3077 F1200
G03 X-0.7210 Y15.6116 I-0.0622 J-0.4965
G01 X4.1115 Y3.1945
G01 X4.8763 Y1.2292
G03 X5.3425 Y0.9105 I0.4660 J0.1813
G01 X22.6252 Y1.7338
G00 Z0.0000
G01 X23.7864 Y1.7891
G01 X25.6218 Y1.8770
G01 Z-2.1000 F200
G01 X40.5430 Y2.5916 F1200
G03 X41.0176 Y3.1349 I-0.0242 J0.5001
G01 X40.8990 Y5.6121
G01 X40.7457 Y5.7514
G01 X40.8990 Y5.6121
G01 X60.3767 Y6.5442
G03 X60.4491 Y7.5342 I-0.0239 J0.4994
G03 X48.8772 Y9.4772 I-380.3510 J-2229.8647
G00 Z0.0000
G01 X48.4927 Y9.5410
G01 X45.9150 Y9.9518
G01 Z-2.1000 F200
G01 X45.2035 Y10.0652 F1200
G01 X22.3973 Y13.4503
G01 X19.1281 Y13.8805
G01 X14.1737 Y14.5026
G00 Z0.0000
G01 X11.1971 Y14.8764
G00 Z5.0000
G00 X0.0000 Y0.0000

M05
