;Project Motorspant_4mm_Sperrholz
;Created by Estlcam version 9 build 10,007
;Machining time about 00:02:06 hours

G90
M03 S24000
G00 Z5.0000


;No. 1: Ausschnitt 6
G00 X12.5662 Y10.2504
G00 Z0.5000
G01 Z-1.5000 F200 S24000
G02 X12.4360 Y11.2397 I0.7917 J0.6075 F800
G02 X14.2220 Y10.3589 I0.9219 J-0.3819
G02 X12.5662 Y10.2504 I-0.8642 J0.4989
G01 Z-3.0000 F200
G02 X12.4360 Y11.2397 I0.7917 J0.6075 F800
G02 X14.2220 Y10.3589 I0.9219 J-0.3819
G02 X12.5662 Y10.2504 I-0.8642 J0.4989
G01 Z-4.1000 F200
G02 X12.4360 Y11.2397 I0.7917 J0.6075 F800
G02 X14.2220 Y10.3589 I0.9219 J-0.3819
G02 X12.5662 Y10.2504 I-0.8642 J0.4989
G00 Z5.0000


;No. 2: Ausschnitt 2
G00 X26.0407 Y21.2800 Z5.0000
G00 Z0.5000
G01 Z-1.5000 F200
G02 X26.1989 Y28.7789 I1.4551 J3.7204 F800
G02 X29.1255 Y28.6511 I1.3026 J-3.7437
G02 X28.9693 Y21.2842 I-1.6208 J-3.6508
G02 X26.0407 Y21.2800 I-1.4695 J3.6704
G01 Z-3.0000 F200
G02 X26.1989 Y28.7789 I1.4551 J3.7204 F800
G00 Z-2.1000
G02 X29.1255 Y28.6511 I1.3026 J-3.7437
G01 Z-3.0000 F200
G02 X28.9693 Y21.2842 I-1.6208 J-3.6508 F800
G00 Z-2.1000
G02 X26.0407 Y21.2800 I-1.4695 J3.6704
G00 Z-2.5000
G01 Z-4.1000 F200
G02 X26.1989 Y28.7789 I1.4551 J3.7204 F800
G00 Z-2.1000
G02 X29.1255 Y28.6511 I1.3026 J-3.7437
G00 Z-2.5000
G01 Z-4.1000 F200
G02 X28.9693 Y21.2842 I-1.6208 J-3.6508 F800
G00 Z-2.1000
G02 X26.0407 Y21.2800 I-1.4695 J3.6704
G00 Z5.0000


;No. 3: Ausschnitt 5
G00 X40.6783 Y10.5996 Z5.0000
G00 Z0.5000
G01 Z-1.5000 F200
G02 X42.6315 Y10.9881 I0.9639 J0.2583 F800
G02 X40.6783 Y10.5996 I-0.9893 J-0.1302
G01 Z-3.0000 F200
G02 X42.6315 Y10.9881 I0.9639 J0.2583 F800
G02 X40.6783 Y10.5996 I-0.9893 J-0.1302
G01 Z-4.1000 F200
G02 X42.6315 Y10.9881 I0.9639 J0.2583 F800
G02 X40.6783 Y10.5996 I-0.9893 J-0.1302
G00 Z5.0000


;No. 4: Ausschnitt 3
G00 X44.6421 Y23.5000 Z5.0000
G00 Z0.5000
G01 Z-1.5000 F200
G01 Y20.0245 F800
G02 X38.6421 I-3.0000 J-0.0233
G01 Y23.5000
G01 Y26.5000
G01 Y29.9755
G02 X44.6421 I3.0000 J0.0233
G01 Y26.5000
G01 Y23.5000
G01 Z-3.0000 F200
G01 Y20.0245 F800
G02 X38.6421 I-3.0000 J-0.0233
G01 Y23.5000
G00 Z-2.1000
G01 Y26.5000
G01 Z-3.0000 F200
G01 Y29.9755 F800
G02 X44.6421 I3.0000 J0.0233
G01 Y26.5000
G00 Z-2.1000
G01 Y23.5000
G00 Z-2.5000
G01 Z-4.1000 F200
G01 Y20.0245 F800
G02 X38.6421 I-3.0000 J-0.0233
G01 Y23.5000
G00 Z-2.1000
G01 Y26.5000
G00 Z-2.5000
G01 Z-4.1000 F200
G01 Y29.9755 F800
G02 X44.6421 I3.0000 J0.0233
G01 Y26.5000
G00 Z-2.1000
G01 Y23.5000
G00 Z5.0000


;No. 5: Ausschnitt 4
G00 X40.9365 Y38.4365 Z5.0000
G00 Z0.5000
G01 Z-1.5000 F200
G01 X40.8505 Y38.5347 F800
G01 X40.7780 Y38.6432
G02 X42.5640 Y39.5240 I0.8642 J0.4989
G02 X40.9365 Y38.4365 I-0.9219 J-0.3819
G01 Z-3.0000 F200
G01 X40.8505 Y38.5347 F800
G01 X40.7780 Y38.6432
G02 X42.5640 Y39.5240 I0.8642 J0.4989
G02 X40.9365 Y38.4365 I-0.9219 J-0.3819
G01 Z-4.1000 F200
G01 X40.8505 Y38.5347 F800
G01 X40.7780 Y38.6432
G02 X42.5640 Y39.5240 I0.8642 J0.4989
G02 X40.9365 Y38.4365 I-0.9219 J-0.3819
G00 Z5.0000


;No. 6: Ausschnitt 1
G00 X12.9760 Y38.2202 Z5.0000
G00 Z0.5000
G01 Z-1.5000 F200
G02 X12.5662 Y39.7496 I0.3819 J0.9219 F800
G02 X14.0635 Y38.4365 I0.7917 J-0.6075
G02 X12.9760 Y38.2202 I-0.7056 J0.7056
G01 Z-3.0000 F200
G02 X12.5662 Y39.7496 I0.3819 J0.9219 F800
G02 X14.0635 Y38.4365 I0.7917 J-0.6075
G02 X12.9760 Y38.2202 I-0.7056 J0.7056
G01 Z-4.1000 F200
G02 X12.5662 Y39.7496 I0.3819 J0.9219 F800
G02 X14.0635 Y38.4365 I0.7917 J-0.6075
G02 X12.9760 Y38.2202 I-0.7056 J0.7056
G00 Z5.0000


;No. 7: Teil 1
G00 X-1.0000 Y23.4900 Z5.0000
G00 Z0.5000
G01 Z-1.5000 F200
G01 Y15.0000 F800
G03 X0.0200 Y14.0000 I1.0003 J0.0001
G01 X1.5000
G01 X1.7929 Y14.2929
G01 X1.5000 Y14.0000
G01 Y5.0000
G03 X2.5200 Y4.0000 I1.0003 J0.0001
G01 X6.5000
G01 X6.7929 Y4.2929
G01 X6.5000 Y4.0000
G01 Y0.0000
G03 X7.5200 Y-1.0000 I1.0003 J0.0001
G01 X26.0100
G01 X29.0100
G01 X47.5000
G03 X48.5000 Y0.0200 I-0.0001 J1.0003
G01 Y4.0000
G01 X48.2071 Y4.2929
G01 X48.5000 Y4.0000
G01 X52.5000
G03 X53.5000 Y5.0200 I-0.0001 J1.0003
G01 Y14.0000
G01 X53.2071 Y14.2929
G01 X53.5000 Y14.0000
G01 X55.0000
G03 X56.0000 Y15.0200 I-0.0001 J1.0003
G01 Y23.5100
G01 Y26.5100
G01 Y35.0000
G03 X54.9800 Y36.0000 I-1.0003 J-0.0001
G01 X53.5000
G01 X53.2071 Y35.7071
G01 X53.5000 Y36.0000
G01 Y45.0000
G03 X52.4800 Y46.0000 I-1.0003 J-0.0001
G01 X48.5000
G01 X48.2071 Y45.7071
G01 X48.5000 Y46.0000
G01 Y50.0000
G03 X47.4800 Y51.0000 I-1.0003 J-0.0001
G01 X28.9900
G01 X25.9900
G01 X7.5000
G03 X6.5000 Y49.9800 I0.0001 J-1.0003
G01 Y46.0000
G01 X6.7929 Y45.7071
G01 X6.5000 Y46.0000
G01 X3.1004
G01 X2.5000
G03 X1.5000 Y44.9800 I0.0001 J-1.0003
G01 Y44.1705
G01 Y36.0000
G01 X1.7929 Y35.7071
G01 X1.5000 Y36.0000
G01 X0.0000
G03 X-1.0000 Y34.9800 I0.0001 J-1.0003
G01 Y26.4900
G01 Y23.4900
G01 Z-3.0000 F200
G01 Y15.0000 F800
G03 X0.0200 Y14.0000 I1.0003 J0.0001
G01 X1.5000
G01 X1.7929 Y14.2929
G01 X1.5000 Y14.0000
G01 Y5.0000
G03 X2.5200 Y4.0000 I1.0003 J0.0001
G01 X6.5000
G01 X6.7929 Y4.2929
G01 X6.5000 Y4.0000
G01 Y0.0000
G03 X7.5200 Y-1.0000 I1.0003 J0.0001
G01 X26.0100
G00 Z-2.1000
G01 X29.0100
G01 Z-3.0000 F200
G01 X47.5000 F800
G03 X48.5000 Y0.0200 I-0.0001 J1.0003
G01 Y4.0000
G01 X48.2071 Y4.2929
G01 X48.5000 Y4.0000
G01 X52.5000
G03 X53.5000 Y5.0200 I-0.0001 J1.0003
G01 Y14.0000
G01 X53.2071 Y14.2929
G01 X53.5000 Y14.0000
G01 X55.0000
G03 X56.0000 Y15.0200 I-0.0001 J1.0003
G01 Y23.5100
G00 Z-2.1000
G01 Y26.5100
G01 Z-3.0000 F200
G01 Y35.0000 F800
G03 X54.9800 Y36.0000 I-1.0003 J-0.0001
G01 X53.5000
G01 X53.2071 Y35.7071
G01 X53.5000 Y36.0000
G01 Y45.0000
G03 X52.4800 Y46.0000 I-1.0003 J-0.0001
G01 X48.5000
G01 X48.2071 Y45.7071
G01 X48.5000 Y46.0000
G01 Y50.0000
G03 X47.4800 Y51.0000 I-1.0003 J-0.0001
G01 X28.9900
G00 Z-2.1000
G01 X25.9900
G01 Z-3.0000 F200
G01 X7.5000 F800
G03 X6.5000 Y49.9800 I0.0001 J-1.0003
G01 Y46.0000
G01 X6.7929 Y45.7071
G01 X6.5000 Y46.0000
G01 X3.1004
G00 Z-2.1000
G01 X2.5000
G03 X1.5000 Y44.9800 I0.0001 J-1.0003
G01 Y44.1705
G01 Z-3.0000 F200
G01 Y36.0000 F800
G01 X1.7929 Y35.7071
G01 X1.5000 Y36.0000
G01 X0.0000
G03 X-1.0000 Y34.9800 I0.0001 J-1.0003
G01 Y26.4900
G00 Z-2.1000
G01 Y23.4900
G00 Z-2.5000
G01 Z-4.1000 F200
G01 Y15.0000 F800
G03 X0.0200 Y14.0000 I1.0003 J0.0001
G01 X1.5000
G01 X1.7929 Y14.2929
G01 X1.5000 Y14.0000
G01 Y5.0000
G03 X2.5200 Y4.0000 I1.0003 J0.0001
G01 X6.5000
G01 X6.7929 Y4.2929
G01 X6.5000 Y4.0000
G01 Y0.0000
G03 X7.5200 Y-1.0000 I1.0003 J0.0001
G01 X26.0100
G00 Z-2.1000
G01 X29.0100
G00 Z-2.5000
G01 Z-4.1000 F200
G01 X47.5000 F800
G03 X48.5000 Y0.0200 I-0.0001 J1.0003
G01 Y4.0000
G01 X48.2071 Y4.2929
G01 X48.5000 Y4.0000
G01 X52.5000
G03 X53.5000 Y5.0200 I-0.0001 J1.0003
G01 Y14.0000
G01 X53.2071 Y14.2929
G01 X53.5000 Y14.0000
G01 X55.0000
G03 X56.0000 Y15.0200 I-0.0001 J1.0003
G01 Y23.5100
G00 Z-2.1000
G01 Y26.5100
G00 Z-2.5000
G01 Z-4.1000 F200
G01 Y35.0000 F800
G03 X54.9800 Y36.0000 I-1.0003 J-0.0001
G01 X53.5000
G01 X53.2071 Y35.7071
G01 X53.5000 Y36.0000
G01 Y45.0000
G03 X52.4800 Y46.0000 I-1.0003 J-0.0001
G01 X48.5000
G01 X48.2071 Y45.7071
G01 X48.5000 Y46.0000
G01 Y50.0000
G03 X47.4800 Y51.0000 I-1.0003 J-0.0001
G01 X28.9900
G00 Z-2.1000
G01 X25.9900
G00 Z-2.5000
G01 Z-4.1000 F200
G01 X7.5000 F800
G03 X6.5000 Y49.9800 I0.0001 J-1.0003
G01 Y46.0000
G01 X6.7929 Y45.7071
G01 X6.5000 Y46.0000
G01 X3.1004
G00 Z-2.1000
G01 X2.5000
G03 X1.5000 Y44.9800 I0.0001 J-1.0003
G01 Y44.1705
G00 Z-2.5000
G01 Z-4.1000 F200
G01 Y36.0000 F800
G01 X1.7929 Y35.7071
G01 X1.5000 Y36.0000
G01 X0.0000
G03 X-1.0000 Y34.9800 I0.0001 J-1.0003
G01 Y26.4900
G00 Z-2.1000
G01 Y23.4900
G00 Z5.0000
G00 X0.0000 Y0.0000

M05
