;Project NasenleisteKlappe_4mm_Balsa_2Stk
;Created by Estlcam version 9 build 10,007
;Machining time about 00:09:33 hours

G90
M03 S24000
G00 Z5.0000


;No. 1: Ausschnitt 1
G00 X1.5000 Y0.5000
G00 Z0.5000
G01 Z-1.0000 F200 S24000
G01 X0.5000 F1200
G01 X0.3536 Y0.3536
G01 X0.5000 Y0.5000
G01 Y16.0000
G01 X0.3536 Y16.1464
G01 X0.5000 Y16.0000
G01 X1.5000
G01 X1.6464 Y16.1464
G01 X1.5000 Y16.0000
G01 Y0.5000
G01 X1.6464 Y0.3536
G01 X1.5000 Y0.5000
G00 Z5.0000


;No. 2: Ausschnitt 2
G00 X69.1667 Y0.5000 Z5.0000
G00 Z0.5000
G01 Z-1.0000 F200
G01 X68.1667 F1200
G01 X68.0202 Y0.3536
G01 X68.1667 Y0.5000
G01 Y16.0000
G01 X68.0202 Y16.1464
G01 X68.1667 Y16.0000
G01 X69.1667
G01 X69.3131 Y16.1464
G01 X69.1667 Y16.0000
G01 Y0.5000
G01 X69.3131 Y0.3536
G01 X69.1667 Y0.5000
G00 Z5.0000


;No. 3: Ausschnitt 3
G00 X135.8333 Y0.5000 Z5.0000
G00 Z0.5000
G01 Z-1.0000 F200
G01 Y16.0000 F1200
G01 X135.6869 Y16.1464
G01 X135.8333 Y16.0000
G01 X136.8333
G01 X136.9798 Y16.1464
G01 X136.8333 Y16.0000
G01 Y0.5000
G01 X136.9798 Y0.3536
G01 X136.8333 Y0.5000
G01 X135.8333
G01 X135.6869 Y0.3536
G01 X135.8333 Y0.5000
G00 Z5.0000


;No. 4: Ausschnitt 4
G00 X203.5000 Y0.5000 Z5.0000
G00 Z0.5000
G01 Z-1.0000 F200
G01 Y16.0000 F1200
G01 X203.3536 Y16.1464
G01 X203.5000 Y16.0000
G01 X204.5000
G01 X204.6464 Y16.1464
G01 X204.5000 Y16.0000
G01 Y0.5000
G01 X204.6464 Y0.3536
G01 X204.5000 Y0.5000
G01 X203.5000
G01 X203.3536 Y0.3536
G01 X203.5000 Y0.5000
G00 Z5.0000


;No. 5: Ausschnitt 5
G00 X271.1667 Y0.5000 Z5.0000
G00 Z0.5000
G01 Z-1.0000 F200
G01 Y16.0000 F1200
G01 X271.0202 Y16.1464
G01 X271.1667 Y16.0000
G01 X272.1667
G01 X272.3131 Y16.1464
G01 X272.1667 Y16.0000
G01 Y0.5000
G01 X272.3131 Y0.3536
G01 X272.1667 Y0.5000
G01 X271.1667
G01 X271.0202 Y0.3536
G01 X271.1667 Y0.5000
G00 Z5.0000


;No. 6: Ausschnitt 6
G00 X338.8333 Y0.5000 Z5.0000
G00 Z0.5000
G01 Z-1.0000 F200
G01 Y16.0000 F1200
G01 X338.6869 Y16.1464
G01 X338.8333 Y16.0000
G01 X339.8333
G01 X339.9798 Y16.1464
G01 X339.8333 Y16.0000
G01 Y0.5000
G01 X339.9798 Y0.3536
G01 X339.8333 Y0.5000
G01 X338.8333
G01 X338.6869 Y0.3536
G01 X338.8333 Y0.5000
G00 Z5.0000


;No. 7: Ausschnitt 7
G00 X406.5000 Y0.5000 Z5.0000
G00 Z0.5000
G01 Z-1.0000 F200
G01 Y16.0000 F1200
G01 X406.3536 Y16.1464
G01 X406.5000 Y16.0000
G01 X407.5000
G01 X407.6464 Y16.1464
G01 X407.5000 Y16.0000
G01 Y0.5000
G01 X407.6464 Y0.3536
G01 X407.5000 Y0.5000
G01 X406.5000
G01 X406.3536 Y0.3536
G01 X406.5000 Y0.5000
G00 Z5.0000


;No. 8: Ausschnitt 8
G00 X462.5000 Y0.5000 Z5.0000
G00 Z0.5000
G01 Z-1.0000 F200
G01 X461.5000 F1200
G01 X461.3536 Y0.3536
G01 X461.5000 Y0.5000
G01 Y16.0000
G01 X461.3536 Y16.1464
G01 X461.5000 Y16.0000
G01 X462.5000
G01 X462.6464 Y16.1464
G01 X462.5000 Y16.0000
G01 Y0.5000
G01 X462.6464 Y0.3536
G01 X462.5000 Y0.5000
G00 Z5.0000


;No. 9: Teil 1
G00 X376.0511 Y-0.5000 Z5.0000
G00 Z0.5000
G01 Z-2.1000 F200
G01 X463.0000 F1200
G03 X463.5000 Y0.0200 I-0.0003 J0.5006
G01 Y16.5000
G03 X462.9800 Y17.0000 I-0.5006 J-0.0003
G01 X434.5692
G00 Z0.0000
G01 X431.5692
G01 Z-2.1000 F200
G01 X310.1533 F1200
G00 Z0.0000
G01 X307.1533
G01 Z-2.1000 F200
G01 X172.9099 F1200
G00 Z0.0000
G01 X169.9099
G01 Z-2.1000 F200
G01 X37.0644 F1200
G00 Z0.0000
G01 X34.0644
G01 Z-2.1000 F200
G01 X0.0000 F1200
G03 X-0.5000 Y16.4800 I0.0003 J-0.5006
G01 Y0.0000
G03 X0.0200 Y-0.5000 I0.5006 J0.0003
G01 X102.1961
G00 Z0.0000
G01 X105.1961
G01 Z-2.1000 F200
G01 X230.0100 F1200
G00 Z0.0000
G01 X233.0100
G01 Z-2.1000 F200
G01 X373.0511 F1200
G00 Z0.0000
G01 X376.0511
G00 Z-1.6000
G01 Z-4.1000 F200
G01 X463.0000 F1200
G03 X463.5000 Y0.0200 I-0.0003 J0.5006
G01 Y16.5000
G03 X462.9800 Y17.0000 I-0.5006 J-0.0003
G01 X434.5692
G00 Z0.0000
G01 X431.5692
G00 Z-1.6000
G01 Z-4.1000 F200
G01 X310.1533 F1200
G00 Z0.0000
G01 X307.1533
G00 Z-1.6000
G01 Z-4.1000 F200
G01 X172.9099 F1200
G00 Z0.0000
G01 X169.9099
G00 Z-1.6000
G01 Z-4.1000 F200
G01 X37.0644 F1200
G00 Z0.0000
G01 X34.0644
G00 Z-1.6000
G01 Z-4.1000 F200
G01 X0.0000 F1200
G03 X-0.5000 Y16.4800 I0.0003 J-0.5006
G01 Y0.0000
G03 X0.0200 Y-0.5000 I0.5006 J0.0003
G01 X102.1961
G00 Z0.0000
G01 X105.1961
G00 Z-1.6000
G01 Z-4.1000 F200
G01 X230.0100 F1200
G00 Z0.0000
G01 X233.0100
G00 Z-1.6000
G01 Z-4.1000 F200
G01 X373.0511 F1200
G00 Z0.0000
G01 X376.0511
G00 Z5.0000
G00 X0.0000 Y0.0000

M05
