;Project RippeKlappe
;Created by Estlcam version 9 build 10,007
;Machining time about 00:01:14 hours

G90
M03 S24000
G00 Z5.0000


;No. 1: Ausschnitt 3
G00 X34.6042 Y3.4563
G00 Z0.5000
G01 Z-2.1000 F200 S24000
G01 Y4.0703 F1200
G01 X35.4897 Y4.0330
G01 X38.7513 Y3.9960
G01 X40.1626 Y3.9822
G01 X40.1526 Y3.4563
G01 X34.6042
G00 Z5.0000


;No. 2: Ausschnitt 1
G00 X88.0533 Y16.4598 Z5.0000
G00 Z0.5000
G01 Z-2.1000 F200
G02 X91.7031 Y21.6723 I4.4312 J0.7813 F1200
G02 X96.9156 Y18.0225 I0.7813 J-4.4312
G02 X93.2658 Y12.8100 I-4.4312 J-0.7813
G02 X88.0533 Y16.4598 I-0.7813 J4.4312
G00 Z5.0000


;No. 3: Ausschnitt 2
G00 X158.9088 Y4.6330 Z5.0000
G00 Z0.5000
G01 Z-2.1000 F200
G01 X153.0146 F1200
G01 X153.3335 Y7.3227
G01 X158.9088 Y7.5868
G01 Y4.6330
G00 Z5.0000


;No. 4: Teil 2
G00 X187.4120 Y22.6297 Z5.0000
G00 Z0.5000
G01 Z-2.1000 F200
G01 X176.0150 Y24.0610 F1200
G03 X175.4939 Y23.3649 I-0.0622 J-0.4965
G01 X180.3264 Y10.9478
G01 X181.0913 Y8.9825
G03 X181.5574 Y8.6638 I0.4660 J0.1813
G01 X200.0014 Y9.5424
G01 X204.0886 Y9.7382
G00 Z0.0000
G01 X207.0852 Y9.8817
G01 Z-2.1000 F200
G01 X216.7579 Y10.3449 F1200
G03 X217.2325 Y10.8882 I-0.0242 J0.5001
G01 X217.1140 Y13.3654
G01 X216.9607 Y13.5047
G01 X217.1140 Y13.3654
G01 X236.5917 Y14.2975
G03 X236.6641 Y15.2875 I-0.0239 J0.4994
G03 X223.9962 Y17.4077 I-290.6176 J-1697.5315
G00 Z0.0000
G01 X221.4185 Y17.8185
G01 X221.0329 Y17.8758
G01 Z-2.1000 F200
G01 X198.6122 Y21.2036 F1200
G01 X195.3430 Y21.6337
G01 X190.3887 Y22.2559
G00 Z0.0000
G01 X187.4120 Y22.6297
G00 Z5.0000


;No. 5: Teil 1
G00 X31.7568 Y26.8172 Z5.0000
G00 Z0.5000
G01 Z-2.1000 F200
G01 X22.3637 Y25.1332 F1200
G01 X21.7173 Y25.0153
G01 X21.3484 Y24.9346
G01 X15.6288 Y23.5642
G03 X1.5260 Y18.3439 I15.6169 J-63.8485
G01 X1.1521 Y18.1337
G03 X-0.3413 Y16.9913 I2.6819 J-5.0532
G03 X-0.3553 Y16.2740 I0.3413 J-0.3654
G01 X2.7802 Y13.1390
G01 X-0.3469 Y10.0114
G03 X-0.2983 Y9.2617 I0.3536 J-0.3535
G03 X2.3209 Y7.8359 I5.0139 J6.0918
G01 X3.3958 Y7.4903
G03 X12.1187 Y5.6462 I19.2154 J69.3401
G03 X25.6872 Y4.4477 I19.3504 J141.6627
G01 X31.7337 Y4.1918
G01 X31.7344 Y0.0000
G03 X32.2544 Y-0.5000 I0.5006 J0.0003
G01 X42.2344
G03 X42.7332 Y-0.0354 I0.0000 J0.5000
G01 X42.7733 Y3.9566
G01 X45.2730 Y3.9320
G01 X48.5353 Y3.9090
G01 X50.1758 Y3.9244
G00 Z0.0000
G01 X53.1756 Y3.9524
G01 Z-2.1000 F200
G01 X57.9565 Y3.9970 F1200
G03 X58.4509 Y4.4663 I-0.0047 J0.5000
G01 X58.4518 Y7.9970
G01 X58.3054 Y8.1435
G01 X58.4518 Y7.9970
G01 X61.4518
G01 X61.5983 Y8.1435
G01 X61.4518 Y7.9970
G01 Y4.5520
G03 X61.9825 Y4.0526 I0.5006 J0.0003
G03 X133.4744 Y6.4212 I-58.5182 J2846.3304
G00 Z0.0000
G01 X136.4714 Y6.5547
G01 Z-2.1000 F200
G01 X146.3870 Y6.9965 F1200
G01 X149.0599 Y7.1211
G01 X148.2226 Y0.0589
G03 X148.7391 Y-0.5000 I0.4971 J-0.0587
G01 X162.6688
G03 X163.1688 Y0.0200 I-0.0003 J0.5006
G01 Y7.7860
G01 X165.4755 Y7.8986
G03 X165.9517 Y8.3863 I-0.0237 J0.4994
G01 X165.9518 Y11.8980
G01 X165.8054 Y12.0445
G01 X165.9518 Y11.8980
G01 X168.9518
G01 X169.0983 Y12.0445
G01 X168.9518 Y11.8980
G01 Y8.5870
G03 X169.4664 Y8.0872 I0.5000 J0.0000
G01 X171.4755 Y8.1822
G03 X171.9518 Y8.7017 I-0.0240 J0.5001
G01 Y24.1007
G03 X171.4830 Y24.6001 I-0.5008 J-0.0003
G01 X169.5029 Y24.8034
G03 X168.9518 Y24.2860 I-0.0508 J-0.4980
G01 Y21.2170
G01 X169.0983 Y21.0706
G01 X168.9518 Y21.2170
G01 X165.9518
G01 X165.8054 Y21.0706
G01 X165.9518 Y21.2170
G01 Y24.7170
G03 X165.4830 Y25.2164 I-0.5008 J-0.0003
G01 X149.6769 Y26.8404
G01 X146.3834 Y27.1451
G01 X132.6749 Y28.2051
G00 Z0.0000
G01 X129.6838 Y28.4364
G01 Z-2.1000 F200
G01 X123.5774 Y28.9085 F1200
G01 X120.3061 Y29.0942
G01 X97.4757 Y30.1864
G01 X74.6276 Y30.2730
G01 X71.3243 Y30.2498
G01 X61.9314 Y29.8656
G03 X61.4518 Y29.3460 I0.0207 J-0.5003
G01 Y25.8660
G01 X61.5983 Y25.7196
G01 X61.4518 Y25.8660
G01 X58.4518
G01 X58.3054 Y25.7196
G01 X58.4518 Y25.8660
G01 Y29.1460
G03 X57.8933 Y29.6430 I-0.5006 J-0.0003
G01 X48.5002 Y28.9145
G01 X45.2288 Y28.5916
G01 X35.4352 Y27.4044
G01 X35.3979 Y27.3988
G01 X34.7189 Y27.2920
G00 Z0.0000
G01 X32.1567 Y26.8889
G01 X31.7568 Y26.8172
G00 Z5.0000
G00 X0.0000 Y0.0000

M05
