;Project RippeBeplankt
;Created by Estlcam version 9 build 10,007
;Machining time about 00:01:43 hours

G90
M03 S24000
G00 Z5.0000


;No. 1: Ausschnitt 1
G00 X35.5248 Y2.6884
G00 Z0.5000
G01 Z-2.1000 F200 S24000
G01 Y4.0401 F1200
G01 X36.1569 Y4.0289
G01 X36.1656 Y4.0200
G01 Y2.6884
G01 X35.5248
G01 Z-4.1000 F200
G01 Y4.0401 F1200
G01 X36.1569 Y4.0289
G01 X36.1656 Y4.0200
G01 Y2.6884
G01 X35.5248
G00 Z5.0000


;No. 2: Ausschnitt 3
G00 X86.6262 Y14.4598 Z5.0000
G00 Z0.5000
G01 Z-2.1000 F200
G02 X90.2761 Y19.6723 I4.4312 J0.7813 F1200
G02 X95.4886 Y16.0225 I0.7813 J-4.4312
G02 X91.8387 Y10.8100 I-4.4312 J-0.7813
G02 X86.6262 Y14.4598 I-0.7813 J4.4312
G01 Z-4.1000 F200
G02 X90.2761 Y19.6723 I4.4312 J0.7813 F1200
G02 X95.4886 Y16.0225 I0.7813 J-4.4312
G02 X91.8387 Y10.8100 I-4.4312 J-0.7813
G02 X86.6262 Y14.4598 I-0.7813 J4.4312
G00 Z5.0000


;No. 3: Ausschnitt 2
G00 X152.5248 Y4.0584 Z5.0000
G00 Z0.5000
G01 Z-2.1000 F200
G01 X152.5280 Y7.3534 F1200
G01 X156.2413 Y7.5301
G01 Y4.0584
G01 X152.5248
G01 Z-4.1000 F200
G01 X152.5280 Y7.3534 F1200
G01 X156.2413 Y7.5301
G01 Y4.0584
G01 X152.5248
G00 Z5.0000


;No. 4: Teil 1
G00 X30.6555 Y22.8437 Z5.0000
G00 Z0.5000
G01 Z-2.1000 F200
G01 X20.7179 Y21.0613 F1200
G01 X20.3671 Y20.9847
G01 X14.6757 Y19.6212
G03 X1.3708 Y14.7650 I15.6066 J-63.4135
G03 X-0.3291 Y13.5754 I2.9708 J-6.0545
G03 X-0.3394 Y12.8313 I0.3298 J-0.3767
G01 X1.3532 Y11.1390
G01 X-0.3042 Y9.4813
G03 X-0.2270 Y8.7106 I0.3542 J-0.3537
G03 X1.5829 Y7.7157 I3.9643 J5.0681
G01 X2.5575 Y7.4019
G03 X14.2789 Y5.2278 I18.3811 J66.4148
G00 Z0.0000
G03 X17.2635 Y4.9294 I6.1395 J46.3465
G01 Z-2.1000 F200
G03 X24.3536 Y4.4455 I11.3687 J114.3824 F1200
G01 X32.3067 Y4.1089
G01 X32.3074 Y0.0000
G03 X32.8274 Y-0.5000 I0.5006 J0.0003
G01 X38.8269
G03 X39.3257 Y-0.0354 I0.0000 J0.5000
G01 X39.3660 Y3.9761
G03 X56.5321 Y4.0077 I7.7564 J448.9004
G03 X57.0248 Y4.5277 I-0.0076 J0.5006
G01 Y5.9970
G01 X56.8784 Y6.1435
G01 X57.0248 Y5.9970
G01 X60.0248
G01 X60.1712 Y6.1435
G01 X60.0248 Y5.9970
G01 Y4.5661
G03 X60.5521 Y4.0665 I0.5006 J0.0003
G03 X73.1567 Y4.3364 I-23.4353 J1388.6180
G01 X95.9732 Y5.0011
G01 X118.3786 Y5.8325
G00 Z0.0000
G01 X118.7924 Y5.8479
G01 X121.3762 Y5.9509
G01 Z-2.1000 F200
G03 X149.0432 Y7.1890 I-269.3050 J6327.6231 F1200
G01 Y0.0000
G03 X149.5632 Y-0.5000 I0.5006 J0.0003
G01 X159.2418
G03 X159.7418 Y0.0200 I-0.0003 J0.5006
G01 Y7.6934
G01 X162.0285 Y7.8050
G01 X164.0485 Y7.9008
G03 X164.5248 Y8.4203 I-0.0240 J0.5001
G01 Y9.8980
G01 X164.3784 Y10.0445
G01 X164.5248 Y9.8980
G01 X167.5248
G01 X167.6712 Y10.0445
G01 X167.5248 Y9.8980
G01 Y8.5895
G03 X168.0394 Y8.0897 I0.5000 J0.0000
G01 X170.0484 Y8.1845
G01 X191.1436 Y9.1921
G00 Z0.0000
G01 X194.1401 Y9.3352
G01 Z-2.1000 F200
G01 X215.2353 Y10.3428 F1200
G03 X215.7099 Y10.8861 I-0.0242 J0.5001
G01 X215.6869 Y11.3654
G01 X215.5337 Y11.5047
G01 X215.6869 Y11.3654
G01 X226.0089 Y11.8593
G03 X226.0397 Y12.8562 I-0.0241 J0.4996
G01 X206.6577 Y15.7755
G01 X198.3827 Y16.9174
G00 Z0.0000
G01 X195.4109 Y17.3275
G01 Z-2.1000 F200
G01 X187.1359 Y18.4694 F1200
G01 X177.3637 Y19.6962
G01 X170.0852 Y20.5823
G01 X168.0762 Y20.7898
G03 X167.5248 Y20.2724 I-0.0511 J-0.4980
G01 Y19.2170
G01 X167.6712 Y19.0706
G01 X167.5248 Y19.2170
G01 X164.5248
G01 X164.3784 Y19.0706
G01 X164.5248 Y19.2170
G01 Y20.7055
G03 X164.0563 Y21.2049 I-0.5008 J-0.0003
G01 X162.0762 Y21.4094
G01 X148.0555 Y22.8498
G01 X144.7871 Y23.1522
G01 X122.0166 Y24.9129
G01 X118.7747 Y25.0969
G01 X108.8842 Y25.5701
G00 Z0.0000
G01 X105.8877 Y25.7135
G01 Z-2.1000 F200
G01 X95.9972 Y26.1866 F1200
G01 X73.2036 Y26.2730
G01 X69.9451 Y26.2501
G01 X62.5044 Y25.9456
G01 X60.4960 Y25.8299
G03 X60.0248 Y25.3374 I0.0288 J-0.4992
G01 Y23.8660
G01 X60.1712 Y23.7196
G01 X60.0248 Y23.8660
G01 X57.0248
G01 X56.8784 Y23.7196
G01 X57.0248 Y23.8660
G01 Y25.1003
G03 X56.4761 Y25.5983 I-0.5006 J-0.0003
G03 X44.0203 Y24.6035 I13.4743 J-247.1685
G01 X34.2839 Y23.4232
G01 X33.6176 Y23.3184
G00 Z0.0000
G01 X31.0617 Y22.9166
G01 X30.6555 Y22.8437
G00 Z-1.6000
G01 Z-4.1000 F200
G01 X20.7179 Y21.0613 F1200
G01 X20.3671 Y20.9847
G01 X14.6757 Y19.6212
G03 X1.3708 Y14.7650 I15.6066 J-63.4135
G03 X-0.3291 Y13.5754 I2.9708 J-6.0545
G03 X-0.3394 Y12.8313 I0.3298 J-0.3767
G01 X1.3532 Y11.1390
G01 X-0.3042 Y9.4813
G03 X-0.2270 Y8.7106 I0.3542 J-0.3537
G03 X1.5829 Y7.7157 I3.9643 J5.0681
G01 X2.5575 Y7.4019
G03 X14.2789 Y5.2278 I18.3811 J66.4148
G00 Z0.0000
G03 X17.2635 Y4.9294 I6.1395 J46.3465
G00 Z-1.6000
G01 Z-4.1000 F200
G03 X24.3536 Y4.4455 I11.3687 J114.3824 F1200
G01 X32.3067 Y4.1089
G01 X32.3074 Y0.0000
G03 X32.8274 Y-0.5000 I0.5006 J0.0003
G01 X38.8269
G03 X39.3257 Y-0.0354 I0.0000 J0.5000
G01 X39.3660 Y3.9761
G03 X56.5321 Y4.0077 I7.7564 J448.9004
G03 X57.0248 Y4.5277 I-0.0076 J0.5006
G01 Y5.9970
G01 X56.8784 Y6.1435
G01 X57.0248 Y5.9970
G01 X60.0248
G01 X60.1712 Y6.1435
G01 X60.0248 Y5.9970
G01 Y4.5661
G03 X60.5521 Y4.0665 I0.5006 J0.0003
G03 X73.1567 Y4.3364 I-23.4353 J1388.6180
G01 X95.9732 Y5.0011
G01 X118.3786 Y5.8325
G00 Z0.0000
G01 X118.7924 Y5.8479
G01 X121.3762 Y5.9509
G00 Z-1.6000
G01 Z-4.1000 F200
G03 X149.0432 Y7.1890 I-269.3050 J6327.6231 F1200
G01 Y0.0000
G03 X149.5632 Y-0.5000 I0.5006 J0.0003
G01 X159.2418
G03 X159.7418 Y0.0200 I-0.0003 J0.5006
G01 Y7.6934
G01 X162.0285 Y7.8050
G01 X164.0485 Y7.9008
G03 X164.5248 Y8.4203 I-0.0240 J0.5001
G01 Y9.8980
G01 X164.3784 Y10.0445
G01 X164.5248 Y9.8980
G01 X167.5248
G01 X167.6712 Y10.0445
G01 X167.5248 Y9.8980
G01 Y8.5895
G03 X168.0394 Y8.0897 I0.5000 J0.0000
G01 X170.0484 Y8.1845
G01 X191.1436 Y9.1921
G00 Z0.0000
G01 X194.1401 Y9.3352
G00 Z-1.6000
G01 Z-4.1000 F200
G01 X215.2353 Y10.3428 F1200
G03 X215.7099 Y10.8861 I-0.0242 J0.5001
G01 X215.6869 Y11.3654
G01 X215.5337 Y11.5047
G01 X215.6869 Y11.3654
G01 X226.0089 Y11.8593
G03 X226.0397 Y12.8562 I-0.0241 J0.4996
G01 X206.6577 Y15.7755
G01 X198.3827 Y16.9174
G00 Z0.0000
G01 X195.4109 Y17.3275
G00 Z-1.6000
G01 Z-4.1000 F200
G01 X187.1359 Y18.4694 F1200
G01 X177.3637 Y19.6962
G01 X170.0852 Y20.5823
G01 X168.0762 Y20.7898
G03 X167.5248 Y20.2724 I-0.0511 J-0.4980
G01 Y19.2170
G01 X167.6712 Y19.0706
G01 X167.5248 Y19.2170
G01 X164.5248
G01 X164.3784 Y19.0706
G01 X164.5248 Y19.2170
G01 Y20.7055
G03 X164.0563 Y21.2049 I-0.5008 J-0.0003
G01 X162.0762 Y21.4094
G01 X148.0555 Y22.8498
G01 X144.7871 Y23.1522
G01 X122.0166 Y24.9129
G01 X118.7747 Y25.0969
G01 X108.8842 Y25.5701
G00 Z0.0000
G01 X105.8877 Y25.7135
G00 Z-1.6000
G01 Z-4.1000 F200
G01 X95.9972 Y26.1866 F1200
G01 X73.2036 Y26.2730
G01 X69.9451 Y26.2501
G01 X62.5044 Y25.9456
G01 X60.4960 Y25.8299
G03 X60.0248 Y25.3374 I0.0288 J-0.4992
G01 Y23.8660
G01 X60.1712 Y23.7196
G01 X60.0248 Y23.8660
G01 X57.0248
G01 X56.8784 Y23.7196
G01 X57.0248 Y23.8660
G01 Y25.1003
G03 X56.4761 Y25.5983 I-0.5006 J-0.0003
G03 X44.0203 Y24.6035 I13.4743 J-247.1685
G01 X34.2839 Y23.4232
G01 X33.6176 Y23.3184
G00 Z0.0000
G01 X31.0617 Y22.9166
G01 X30.6555 Y22.8437
G00 Z5.0000
G00 X0.0000 Y0.0000

M05
