;Project Seite_Hinten_2.5mm_Balsa
;Created by Estlcam version 9 build 10,007
;Machining time about 00:06:15 hours

G90
M03 S24000
G00 Z5.0000


;No. 1: Ausschnitt 1
G00 X136.0000 Y19.1572
G00 Z0.5000
G01 Z-1.5000 F200 S24000
G01 Y37.1572 F800
G01 X135.7071 Y37.4501
G01 X136.0000 Y37.1572
G01 X138.0000
G01 X138.2929 Y37.4501
G01 X138.0000 Y37.1572
G01 Y19.1572
G01 X138.2929 Y18.8643
G01 X138.0000 Y19.1572
G01 X136.0000
G01 X135.7071 Y18.8643
G01 X136.0000 Y19.1572
G01 Z-2.6000 F200
G01 Y37.1572 F800
G01 X135.7071 Y37.4501
G01 X136.0000 Y37.1572
G01 X138.0000
G01 X138.2929 Y37.4501
G01 X138.0000 Y37.1572
G01 Y19.1572
G01 X138.2929 Y18.8643
G01 X138.0000 Y19.1572
G01 X136.0000
G01 X135.7071 Y18.8643
G01 X136.0000 Y19.1572
G00 Z5.0000


;No. 2: Ausschnitt 2
G00 X317.0000 Y21.1572 Z5.0000
G00 Z0.5000
G01 Z-1.5000 F200
G01 Y27.1572 F800
G01 X316.7071 Y27.4501
G01 X317.0000 Y27.1572
G01 X319.0000
G01 X319.2929 Y27.4501
G01 X319.0000 Y27.1572
G01 Y21.1572
G01 X319.2929 Y20.8643
G01 X319.0000 Y21.1572
G01 X317.0000
G01 X316.7071 Y20.8643
G01 X317.0000 Y21.1572
G01 Z-2.6000 F200
G01 Y27.1572 F800
G01 X316.7071 Y27.4501
G01 X317.0000 Y27.1572
G01 X319.0000
G01 X319.2929 Y27.4501
G01 X319.0000 Y27.1572
G01 Y21.1572
G01 X319.2929 Y20.8643
G01 X319.0000 Y21.1572
G01 X317.0000
G01 X316.7071 Y20.8643
G01 X317.0000 Y21.1572
G00 Z5.0000


;No. 3: Teil 1
G00 X77.5713 Y52.3658 Z5.0000
G00 Z0.5000
G01 Z-1.5000 F200
G01 X10.0577 Y56.2666 F800
G03 X9.3860 Y34.2864 I-0.0585 J-10.9986
G01 X10.5531 Y34.2505
G02 X10.5336 Y16.2848 I-0.5531 J-8.9822
G01 X9.3804 Y16.2504
G03 X0.7520 Y-0.6634 I0.6112 J-10.9695
G03 X1.5646 Y-0.9981 I0.7489 J0.6643
G01 X115.3230 Y4.0534
G00 Z-0.6000
G01 X119.3191 Y4.2308
G01 Z-1.5000 F200
G01 X296.2327 Y12.0868 F800
G00 Z-0.6000
G01 X300.2288 Y12.2642
G01 Z-1.5000 F200
G01 X410.0444 Y17.1406 F800
G03 X411.0000 Y18.1596 I-0.0445 J0.9994
G01 Y23.1396
G03 X409.9800 Y24.1396 I-1.0003 J-0.0001
G01 X407.0000
G01 X406.7071 Y23.8468
G01 X407.0000 Y24.1396
G01 Y27.1572
G01 X406.7071 Y27.4501
G01 X407.0000 Y27.1572
G01 X410.0000
G03 X411.0000 Y28.1772 I-0.0001 J1.0003
G01 Y32.1572
G03 X409.9800 Y33.1572 I-1.0003 J-0.0001
G01 X352.6600
G00 Z-0.6000
G01 X348.6600
G01 Z-1.5000 F200
G01 X321.0000 F800
G01 X320.7071 Y32.8643
G01 X321.0000 Y33.1572
G01 Y37.3572
G03 X320.0707 Y38.3547 I-1.0000 J0.0000
G01 X81.5646 Y52.1351
G00 Z-0.6000
G01 X77.5713 Y52.3658
G00 Z-1.0000
G01 Z-2.6000 F200
G01 X10.0577 Y56.2666 F800
G03 X9.3860 Y34.2864 I-0.0585 J-10.9986
G01 X10.5531 Y34.2505
G02 X10.5336 Y16.2848 I-0.5531 J-8.9822
G01 X9.3804 Y16.2504
G03 X0.7520 Y-0.6634 I0.6112 J-10.9695
G03 X1.5646 Y-0.9981 I0.7489 J0.6643
G01 X115.3230 Y4.0534
G00 Z-0.6000
G01 X119.3191 Y4.2308
G00 Z-1.0000
G01 Z-2.6000 F200
G01 X296.2327 Y12.0868 F800
G00 Z-0.6000
G01 X300.2288 Y12.2642
G00 Z-1.0000
G01 Z-2.6000 F200
G01 X410.0444 Y17.1406 F800
G03 X411.0000 Y18.1596 I-0.0445 J0.9994
G01 Y23.1396
G03 X409.9800 Y24.1396 I-1.0003 J-0.0001
G01 X407.0000
G01 X406.7071 Y23.8468
G01 X407.0000 Y24.1396
G01 Y27.1572
G01 X406.7071 Y27.4501
G01 X407.0000 Y27.1572
G01 X410.0000
G03 X411.0000 Y28.1772 I-0.0001 J1.0003
G01 Y32.1572
G03 X409.9800 Y33.1572 I-1.0003 J-0.0001
G01 X352.6600
G00 Z-0.6000
G01 X348.6600
G00 Z-1.0000
G01 Z-2.6000 F200
G01 X321.0000 F800
G01 X320.7071 Y32.8643
G01 X321.0000 Y33.1572
G01 Y37.3572
G03 X320.0707 Y38.3547 I-1.0000 J0.0000
G01 X81.5646 Y52.1351
G00 Z-0.6000
G01 X77.5713 Y52.3658
G00 Z5.0000
G00 X0.0000 Y0.0000

M05
