;Project Seite_Vorne_2.5mm_Balsa
;Created by Estlcam version 9 build 10,007
;Machining time about 00:04:10 hours

G90
M03 S24000
G00 Z5.0000


;No. 1: Ausschnitt 1
G00 X97.0000 Y21.0000
G00 Z0.5000
G01 Z-1.5000 F200 S24000
G01 Y39.0000 F800
G01 X96.7071 Y39.2929
G01 X97.0000 Y39.0000
G01 X99.0000
G01 X99.2929 Y39.2929
G01 X99.0000 Y39.0000
G01 Y21.0000
G01 X99.2929 Y20.7071
G01 X99.0000 Y21.0000
G01 X97.0000
G01 X96.7071 Y20.7071
G01 X97.0000 Y21.0000
G01 Z-2.6000 F200
G01 Y39.0000 F800
G01 X96.7071 Y39.2929
G01 X97.0000 Y39.0000
G01 X99.0000
G01 X99.2929 Y39.2929
G01 X99.0000 Y39.0000
G01 Y21.0000
G01 X99.2929 Y20.7071
G01 X99.0000 Y21.0000
G01 X97.0000
G01 X96.7071 Y20.7071
G01 X97.0000 Y21.0000
G00 Z5.0000


;No. 2: Ausschnitt 2
G00 X116.0000 Y47.0000 Z5.0000
G00 Z0.5000
G01 Z-1.5000 F200
G01 Y49.0000 F800
G01 X115.7071 Y49.2929
G01 X116.0000 Y49.0000
G01 X154.0000
G01 X154.2929 Y49.2929
G01 X154.0000 Y49.0000
G01 Y47.0000
G01 X154.2929 Y46.7071
G01 X154.0000 Y47.0000
G01 X116.0000
G01 X115.7071 Y46.7071
G01 X116.0000 Y47.0000
G01 Z-2.6000 F200
G01 Y49.0000 F800
G01 X115.7071 Y49.2929
G01 X116.0000 Y49.0000
G01 X154.0000
G01 X154.2929 Y49.2929
G01 X154.0000 Y49.0000
G01 Y47.0000
G01 X154.2929 Y46.7071
G01 X154.0000 Y47.0000
G01 X116.0000
G01 X115.7071 Y46.7071
G01 X116.0000 Y47.0000
G00 Z5.0000


;No. 3: Ausschnitt 3
G00 X286.0000 Y47.0000 Z5.0000
G00 Z0.5000
G01 Z-1.5000 F200
G01 Y49.0000 F800
G01 X285.7071 Y49.2929
G01 X286.0000 Y49.0000
G01 X324.0000
G01 X324.2929 Y49.2929
G01 X324.0000 Y49.0000
G01 Y47.0000
G01 X324.2929 Y46.7071
G01 X324.0000 Y47.0000
G01 X286.0000
G01 X285.7071 Y46.7071
G01 X286.0000 Y47.0000
G01 Z-2.6000 F200
G01 Y49.0000 F800
G01 X285.7071 Y49.2929
G01 X286.0000 Y49.0000
G01 X324.0000
G01 X324.2929 Y49.2929
G01 X324.0000 Y49.0000
G01 Y47.0000
G01 X324.2929 Y46.7071
G01 X324.0000 Y47.0000
G01 X286.0000
G01 X285.7071 Y46.7071
G01 X286.0000 Y47.0000
G00 Z5.0000


;No. 4: Ausschnitt 4
G00 X351.0000 Y21.0000 Z5.0000
G00 Z0.5000
G01 Z-1.5000 F200
G01 Y39.0000 F800
G01 X350.7071 Y39.2929
G01 X351.0000 Y39.0000
G01 X353.0000
G01 X353.2929 Y39.2929
G01 X353.0000 Y39.0000
G01 Y21.0000
G01 X353.2929 Y20.7071
G01 X353.0000 Y21.0000
G01 X351.0000
G01 X350.7071 Y20.7071
G01 X351.0000 Y21.0000
G01 Z-2.6000 F200
G01 Y39.0000 F800
G01 X350.7071 Y39.2929
G01 X351.0000 Y39.0000
G01 X353.0000
G01 X353.2929 Y39.2929
G01 X353.0000 Y39.0000
G01 Y21.0000
G01 X353.2929 Y20.7071
G01 X353.0000 Y21.0000
G01 X351.0000
G01 X350.7071 Y20.7071
G01 X351.0000 Y21.0000
G00 Z5.0000


;No. 5: Teil 1
G00 X-1.0000 Y5.0000 Z5.0000
G00 Z0.5000
G01 Z-1.5000 F200
G03 X-0.0707 Y4.0025 I1.0000 J0.0000 F800
G01 X99.9501 Y-0.9988
G01 X100.0200 Y-1.0000
G01 X350.0000
G01 X391.5446 Y0.8438
G03 X392.3902 Y2.2989 I-0.0444 J0.9990
G02 X399.4689 Y16.0950 I7.6125 J4.8081
G01 X400.6340 Y16.1298
G03 X400.6140 Y38.0930 I-0.6343 J10.9810
G01 X399.4664 Y38.1277
G02 X400.1298 Y56.1196 I0.5391 J8.9883
G03 X400.0377 Y58.1106 I-0.1300 J0.9916
G01 X350.0577 Y60.9983
G01 X349.9577 Y60.9991
G02 X322.3745 Y59.6861 I-442.3495 J9002.3450
G03 X288.5226 Y58.0930 I301.1742 J-6760.1202
G02 X251.6325 Y56.3692 I-202.1211 J3930.0050
G02 X199.8617 Y54.1853 I-157.9353 J3129.1161
G01 X197.4623 Y54.1177
G03 X176.4110 Y53.5832 I61.4632 J-2835.4908
G02 X148.1742 Y53.1437 I-24.7814 J684.9044
G02 X138.9747 Y53.1900 I-2.7271 J371.9817
G02 X122.0660 Y54.0448 I9.2392 J350.4488
G02 X114.6281 Y54.8937 I12.0117 J138.2408
G02 X105.8237 Y56.7858 I7.3981 J55.8564
G02 X102.6278 Y58.6073 I2.0183 J7.2556
G01 X101.9576 Y59.2276
G02 X100.9811 Y60.2553 I3.8416 J4.6283
G03 X99.9774 Y60.9997 I-0.9897 J-0.2855
G01 X-0.0499 Y55.9988
G03 X-0.9998 Y55.0208 I0.0499 J-0.9988
G01 X-1.0000 Y40.0000
G03 X0.0200 Y39.0000 I1.0003 J0.0001
G01 X3.0000
G01 X3.2929 Y39.2929
G01 X3.0000 Y39.0000
G01 Y21.0000
G01 X3.2929 Y20.7071
G01 X3.0000 Y21.0000
G01 X0.0000
G03 X-1.0000 Y19.9800 I0.0001 J-1.0003
G01 Y5.0000
G01 Z-2.6000 F200
G03 X-0.0707 Y4.0025 I1.0000 J0.0000 F800
G01 X99.9501 Y-0.9988
G01 X100.0200 Y-1.0000
G01 X350.0000
G01 X391.5446 Y0.8438
G03 X392.3902 Y2.2989 I-0.0444 J0.9990
G02 X399.4689 Y16.0950 I7.6125 J4.8081
G01 X400.6340 Y16.1298
G03 X400.6140 Y38.0930 I-0.6343 J10.9810
G01 X399.4664 Y38.1277
G02 X400.1298 Y56.1196 I0.5391 J8.9883
G03 X400.0377 Y58.1106 I-0.1300 J0.9916
G01 X350.0577 Y60.9983
G01 X349.9577 Y60.9991
G02 X322.3745 Y59.6861 I-442.3495 J9002.3450
G03 X288.5226 Y58.0930 I301.1742 J-6760.1202
G02 X251.6325 Y56.3692 I-202.1211 J3930.0050
G02 X199.8617 Y54.1853 I-157.9353 J3129.1161
G01 X197.4623 Y54.1177
G03 X176.4110 Y53.5832 I61.4632 J-2835.4908
G02 X148.1742 Y53.1437 I-24.7814 J684.9044
G02 X138.9747 Y53.1900 I-2.7271 J371.9817
G02 X122.0660 Y54.0448 I9.2392 J350.4488
G02 X114.6281 Y54.8937 I12.0117 J138.2408
G02 X105.8237 Y56.7858 I7.3981 J55.8564
G02 X102.6278 Y58.6073 I2.0183 J7.2556
G01 X101.9576 Y59.2276
G02 X100.9811 Y60.2553 I3.8416 J4.6283
G03 X99.9774 Y60.9997 I-0.9897 J-0.2855
G01 X-0.0499 Y55.9988
G03 X-0.9998 Y55.0208 I0.0499 J-0.9988
G01 X-1.0000 Y40.0000
G03 X0.0200 Y39.0000 I1.0003 J0.0001
G01 X3.0000
G01 X3.2929 Y39.2929
G01 X3.0000 Y39.0000
G01 Y21.0000
G01 X3.2929 Y20.7071
G01 X3.0000 Y21.0000
G01 X0.0000
G03 X-1.0000 Y19.9800 I0.0001 J-1.0003
G01 Y5.0000
G00 Z5.0000
G00 X0.0000 Y0.0000

M05
