;Project Spant5_4mm_Balsa
;Created by Estlcam version 9 build 10,007
;Machining time about 00:00:53 hours

G90
M03 S24000
G00 Z5.0000


;No. 1: Ausschnitt 1
G00 X19.5000 Y8.0140
G00 Z0.5000
G01 Z-1.5000 F200 S24000
G01 X13.5000 F800
G01 Y14.0140
G01 X19.5000
G01 Y8.0140
G01 Z-3.0000 F200
G01 X13.5000 F800
G01 Y14.0140
G01 X19.5000
G01 Y8.0140
G01 Z-4.1000 F200
G01 X13.5000 F800
G01 Y14.0140
G01 X19.5000
G01 Y8.0140
G00 Z5.0000


;No. 2: Teil 1
G00 X14.4900 Y24.2140 Z5.0000
G00 Z0.5000
G01 Z-1.5000 F200
G01 X7.5000 F800
G03 X6.5000 Y23.1940 I0.0001 J-1.0003
G01 Y19.2140
G01 X6.7929 Y18.9211
G01 X6.5000 Y19.2140
G01 X2.5000
G03 X1.5000 Y18.1940 I0.0001 J-1.0003
G01 Y15.0140
G01 X1.7929 Y14.7211
G01 X1.5000 Y15.0140
G01 X0.0000
G03 X-1.0000 Y13.9940 I0.0001 J-1.0003
G01 Y6.0140
G03 X0.0200 Y5.0140 I1.0003 J0.0001
G01 X1.5000
G01 X1.7929 Y5.3069
G01 X1.5000 Y5.0140
G03 X2.5200 Y4.0000 I1.0004 J-0.0137
G01 X6.5000
G01 X6.7929 Y4.2929
G01 X6.5000 Y4.0000
G01 Y0.0000
G03 X7.5200 Y-1.0000 I1.0003 J0.0001
G01 X14.5100
G00 Z-1.1000
G01 X18.5100
G01 Z-1.5000 F200
G01 X25.5000 F800
G03 X26.5000 Y0.0200 I-0.0001 J1.0003
G01 Y4.0000
G01 X26.2071 Y4.2929
G01 X26.5000 Y4.0000
G01 X30.5000
G03 X31.5000 Y5.0140 I-0.0001 J1.0002
G01 X31.2071 Y5.3069
G01 X31.5000 Y5.0140
G01 X33.0000
G03 X34.0000 Y6.0340 I-0.0001 J1.0003
G01 Y14.0140
G03 X32.9800 Y15.0140 I-1.0003 J-0.0001
G01 X31.5000
G01 X31.2071 Y14.7211
G01 X31.5000 Y15.0140
G01 Y18.2140
G03 X30.4800 Y19.2140 I-1.0003 J-0.0001
G01 X26.5000
G01 X26.2071 Y18.9211
G01 X26.5000 Y19.2140
G01 Y23.2140
G03 X25.4800 Y24.2140 I-1.0003 J-0.0001
G01 X18.4900
G00 Z-1.1000
G01 X14.4900
G01 Z-3.0000 F200
G01 X7.5000 F800
G03 X6.5000 Y23.1940 I0.0001 J-1.0003
G01 Y19.2140
G01 X6.7929 Y18.9211
G01 X6.5000 Y19.2140
G01 X2.5000
G03 X1.5000 Y18.1940 I0.0001 J-1.0003
G01 Y15.0140
G01 X1.7929 Y14.7211
G01 X1.5000 Y15.0140
G01 X0.0000
G03 X-1.0000 Y13.9940 I0.0001 J-1.0003
G01 Y6.0140
G03 X0.0200 Y5.0140 I1.0003 J0.0001
G01 X1.5000
G01 X1.7929 Y5.3069
G01 X1.5000 Y5.0140
G03 X2.5200 Y4.0000 I1.0004 J-0.0137
G01 X6.5000
G01 X6.7929 Y4.2929
G01 X6.5000 Y4.0000
G01 Y0.0000
G03 X7.5200 Y-1.0000 I1.0003 J0.0001
G01 X14.5100
G00 Z-1.1000
G01 X18.5100
G01 Z-3.0000 F200
G01 X25.5000 F800
G03 X26.5000 Y0.0200 I-0.0001 J1.0003
G01 Y4.0000
G01 X26.2071 Y4.2929
G01 X26.5000 Y4.0000
G01 X30.5000
G03 X31.5000 Y5.0140 I-0.0001 J1.0002
G01 X31.2071 Y5.3069
G01 X31.5000 Y5.0140
G01 X33.0000
G03 X34.0000 Y6.0340 I-0.0001 J1.0003
G01 Y14.0140
G03 X32.9800 Y15.0140 I-1.0003 J-0.0001
G01 X31.5000
G01 X31.2071 Y14.7211
G01 X31.5000 Y15.0140
G01 Y18.2140
G03 X30.4800 Y19.2140 I-1.0003 J-0.0001
G01 X26.5000
G01 X26.2071 Y18.9211
G01 X26.5000 Y19.2140
G01 Y23.2140
G03 X25.4800 Y24.2140 I-1.0003 J-0.0001
G01 X18.4900
G00 Z-1.1000
G01 X14.4900
G00 Z-2.5000
G01 Z-4.1000 F200
G01 X7.5000 F800
G03 X6.5000 Y23.1940 I0.0001 J-1.0003
G01 Y19.2140
G01 X6.7929 Y18.9211
G01 X6.5000 Y19.2140
G01 X2.5000
G03 X1.5000 Y18.1940 I0.0001 J-1.0003
G01 Y15.0140
G01 X1.7929 Y14.7211
G01 X1.5000 Y15.0140
G01 X0.0000
G03 X-1.0000 Y13.9940 I0.0001 J-1.0003
G01 Y6.0140
G03 X0.0200 Y5.0140 I1.0003 J0.0001
G01 X1.5000
G01 X1.7929 Y5.3069
G01 X1.5000 Y5.0140
G03 X2.5200 Y4.0000 I1.0004 J-0.0137
G01 X6.5000
G01 X6.7929 Y4.2929
G01 X6.5000 Y4.0000
G01 Y0.0000
G03 X7.5200 Y-1.0000 I1.0003 J0.0001
G01 X14.5100
G00 Z-1.1000
G01 X18.5100
G00 Z-2.5000
G01 Z-4.1000 F200
G01 X25.5000 F800
G03 X26.5000 Y0.0200 I-0.0001 J1.0003
G01 Y4.0000
G01 X26.2071 Y4.2929
G01 X26.5000 Y4.0000
G01 X30.5000
G03 X31.5000 Y5.0140 I-0.0001 J1.0002
G01 X31.2071 Y5.3069
G01 X31.5000 Y5.0140
G01 X33.0000
G03 X34.0000 Y6.0340 I-0.0001 J1.0003
G01 Y14.0140
G03 X32.9800 Y15.0140 I-1.0003 J-0.0001
G01 X31.5000
G01 X31.2071 Y14.7211
G01 X31.5000 Y15.0140
G01 Y18.2140
G03 X30.4800 Y19.2140 I-1.0003 J-0.0001
G01 X26.5000
G01 X26.2071 Y18.9211
G01 X26.5000 Y19.2140
G01 Y23.2140
G03 X25.4800 Y24.2140 I-1.0003 J-0.0001
G01 X18.4900
G00 Z-1.1000
G01 X14.4900
G00 Z5.0000
G00 X0.0000 Y0.0000

M05
