;Project Spant4_4mm_Balsa
;Created by Estlcam version 9 build 10,007
;Machining time about 00:01:48 hours

G90
M03 S24000
G00 Z5.0000


;No. 1: Ausschnitt 1
G00 X22.7173 Y11.0026
G00 Z0.5000
G01 Z-1.5000 F200 S24000
G01 X17.9101 Y11.0041 F800
G01 X13.5041 Y15.4101
G01 X13.5000 Y15.4200
G01 Y26.8090
G01 X13.5041 Y26.8189
G01 X17.9101 Y31.2249
G01 X17.9200 Y31.2290
G01 X22.7222
G00 Z-1.1000
G01 X26.7222
G01 Z-1.5000 F200
G01 X31.5244 F800
G01 X31.5343 Y31.2249
G01 X35.9404 Y26.8189
G01 X35.9444 Y26.8090
G01 Y15.4200
G01 X35.9404 Y15.4101
G01 X31.5343 Y11.0041
G01 X31.5244 Y11.0000
G01 X26.7173 Y11.0014
G00 Z-1.1000
G01 X22.7173 Y11.0026
G01 Z-3.0000 F200
G01 X17.9101 Y11.0041 F800
G01 X13.5041 Y15.4101
G01 X13.5000 Y15.4200
G01 Y26.8090
G01 X13.5041 Y26.8189
G01 X17.9101 Y31.2249
G01 X17.9200 Y31.2290
G01 X22.7222
G00 Z-1.1000
G01 X26.7222
G01 Z-3.0000 F200
G01 X31.5244 F800
G01 X31.5343 Y31.2249
G01 X35.9404 Y26.8189
G01 X35.9444 Y26.8090
G01 Y15.4200
G01 X35.9404 Y15.4101
G01 X31.5343 Y11.0041
G01 X31.5244 Y11.0000
G01 X26.7173 Y11.0014
G00 Z-1.1000
G01 X22.7173 Y11.0026
G00 Z-2.5000
G01 Z-4.1000 F200
G01 X17.9101 Y11.0041 F800
G01 X13.5041 Y15.4101
G01 X13.5000 Y15.4200
G01 Y26.8090
G01 X13.5041 Y26.8189
G01 X17.9101 Y31.2249
G01 X17.9200 Y31.2290
G01 X22.7222
G00 Z-1.1000
G01 X26.7222
G00 Z-2.5000
G01 Z-4.1000 F200
G01 X31.5244 F800
G01 X31.5343 Y31.2249
G01 X35.9404 Y26.8189
G01 X35.9444 Y26.8090
G01 Y15.4200
G01 X35.9404 Y15.4101
G01 X31.5343 Y11.0041
G01 X31.5244 Y11.0000
G01 X26.7173 Y11.0014
G00 Z-1.1000
G01 X22.7173 Y11.0026
G00 Z5.0000


;No. 2: Teil 1
G00 X-1.0000 Y20.2190 Z5.0000
G00 Z0.5000
G01 Z-1.5000 F200
G01 Y12.2290 F800
G03 X0.0200 Y11.2290 I1.0003 J0.0001
G01 X1.5000
G01 X1.7929 Y11.5219
G01 X1.5000 Y11.2290
G01 Y5.0000
G03 X2.5200 Y4.0000 I1.0003 J0.0001
G01 X6.5000
G01 X6.7929 Y4.2929
G01 X6.5000 Y4.0000
G01 Y0.0000
G03 X7.5200 Y-1.0000 I1.0003 J0.0001
G01 X22.7322
G00 Z-1.1000
G01 X26.7322
G01 Z-1.5000 F200
G01 X41.9444 F800
G03 X42.9444 Y0.0200 I-0.0001 J1.0003
G01 Y4.0000
G01 X42.6516 Y4.2929
G01 X42.9444 Y4.0000
G01 X46.9444
G03 X47.9444 Y5.0200 I-0.0001 J1.0003
G01 Y11.2290
G01 X47.6516 Y11.5219
G01 X47.9444 Y11.2290
G01 X49.4444
G03 X50.4444 Y12.2490 I-0.0001 J1.0003
G01 Y20.2390
G00 Z-1.1000
G01 Y24.2390
G01 Z-1.5000 F200
G01 Y32.2290 F800
G03 X49.4244 Y33.2290 I-1.0003 J-0.0001
G01 X47.9444
G01 X47.6516 Y32.9361
G01 X47.9444 Y33.2290
G01 Y37.2290
G03 X46.9244 Y38.2290 I-1.0003 J-0.0001
G01 X42.9444
G01 X42.6516 Y37.9361
G01 X42.9444 Y38.2290
G01 Y42.2290
G03 X41.9244 Y43.2290 I-1.0003 J-0.0001
G01 X26.7122
G00 Z-1.1000
G01 X22.7122
G01 Z-1.5000 F200
G01 X7.5000 F800
G03 X6.5000 Y42.2090 I0.0001 J-1.0003
G01 Y38.2290
G01 X6.7929 Y37.9361
G01 X6.5000 Y38.2290
G01 X2.5000
G03 X1.5000 Y37.2090 I0.0001 J-1.0003
G01 Y33.2290
G01 X1.7929 Y32.9361
G01 X1.5000 Y33.2290
G01 X0.0000
G03 X-1.0000 Y32.2090 I0.0001 J-1.0003
G01 Y24.2190
G00 Z-1.1000
G01 Y20.2190
G01 Z-3.0000 F200
G01 Y12.2290 F800
G03 X0.0200 Y11.2290 I1.0003 J0.0001
G01 X1.5000
G01 X1.7929 Y11.5219
G01 X1.5000 Y11.2290
G01 Y5.0000
G03 X2.5200 Y4.0000 I1.0003 J0.0001
G01 X6.5000
G01 X6.7929 Y4.2929
G01 X6.5000 Y4.0000
G01 Y0.0000
G03 X7.5200 Y-1.0000 I1.0003 J0.0001
G01 X22.7322
G00 Z-1.1000
G01 X26.7322
G01 Z-3.0000 F200
G01 X41.9444 F800
G03 X42.9444 Y0.0200 I-0.0001 J1.0003
G01 Y4.0000
G01 X42.6516 Y4.2929
G01 X42.9444 Y4.0000
G01 X46.9444
G03 X47.9444 Y5.0200 I-0.0001 J1.0003
G01 Y11.2290
G01 X47.6516 Y11.5219
G01 X47.9444 Y11.2290
G01 X49.4444
G03 X50.4444 Y12.2490 I-0.0001 J1.0003
G01 Y20.2390
G00 Z-1.1000
G01 Y24.2390
G01 Z-3.0000 F200
G01 Y32.2290 F800
G03 X49.4244 Y33.2290 I-1.0003 J-0.0001
G01 X47.9444
G01 X47.6516 Y32.9361
G01 X47.9444 Y33.2290
G01 Y37.2290
G03 X46.9244 Y38.2290 I-1.0003 J-0.0001
G01 X42.9444
G01 X42.6516 Y37.9361
G01 X42.9444 Y38.2290
G01 Y42.2290
G03 X41.9244 Y43.2290 I-1.0003 J-0.0001
G01 X26.7122
G00 Z-1.1000
G01 X22.7122
G01 Z-3.0000 F200
G01 X7.5000 F800
G03 X6.5000 Y42.2090 I0.0001 J-1.0003
G01 Y38.2290
G01 X6.7929 Y37.9361
G01 X6.5000 Y38.2290
G01 X2.5000
G03 X1.5000 Y37.2090 I0.0001 J-1.0003
G01 Y33.2290
G01 X1.7929 Y32.9361
G01 X1.5000 Y33.2290
G01 X0.0000
G03 X-1.0000 Y32.2090 I0.0001 J-1.0003
G01 Y24.2190
G00 Z-1.1000
G01 Y20.2190
G00 Z-2.5000
G01 Z-4.1000 F200
G01 Y12.2290 F800
G03 X0.0200 Y11.2290 I1.0003 J0.0001
G01 X1.5000
G01 X1.7929 Y11.5219
G01 X1.5000 Y11.2290
G01 Y5.0000
G03 X2.5200 Y4.0000 I1.0003 J0.0001
G01 X6.5000
G01 X6.7929 Y4.2929
G01 X6.5000 Y4.0000
G01 Y0.0000
G03 X7.5200 Y-1.0000 I1.0003 J0.0001
G01 X22.7322
G00 Z-1.1000
G01 X26.7322
G00 Z-2.5000
G01 Z-4.1000 F200
G01 X41.9444 F800
G03 X42.9444 Y0.0200 I-0.0001 J1.0003
G01 Y4.0000
G01 X42.6516 Y4.2929
G01 X42.9444 Y4.0000
G01 X46.9444
G03 X47.9444 Y5.0200 I-0.0001 J1.0003
G01 Y11.2290
G01 X47.6516 Y11.5219
G01 X47.9444 Y11.2290
G01 X49.4444
G03 X50.4444 Y12.2490 I-0.0001 J1.0003
G01 Y20.2390
G00 Z-1.1000
G01 Y24.2390
G00 Z-2.5000
G01 Z-4.1000 F200
G01 Y32.2290 F800
G03 X49.4244 Y33.2290 I-1.0003 J-0.0001
G01 X47.9444
G01 X47.6516 Y32.9361
G01 X47.9444 Y33.2290
G01 Y37.2290
G03 X46.9244 Y38.2290 I-1.0003 J-0.0001
G01 X42.9444
G01 X42.6516 Y37.9361
G01 X42.9444 Y38.2290
G01 Y42.2290
G03 X41.9244 Y43.2290 I-1.0003 J-0.0001
G01 X26.7122
G00 Z-1.1000
G01 X22.7122
G00 Z-2.5000
G01 Z-4.1000 F200
G01 X7.5000 F800
G03 X6.5000 Y42.2090 I0.0001 J-1.0003
G01 Y38.2290
G01 X6.7929 Y37.9361
G01 X6.5000 Y38.2290
G01 X2.5000
G03 X1.5000 Y37.2090 I0.0001 J-1.0003
G01 Y33.2290
G01 X1.7929 Y32.9361
G01 X1.5000 Y33.2290
G01 X0.0000
G03 X-1.0000 Y32.2090 I0.0001 J-1.0003
G01 Y24.2190
G00 Z-1.1000
G01 Y20.2190
G00 Z5.0000
G00 X0.0000 Y0.0000

M05
