;Project Spant2+3_4mm_Balsa
;Created by Estlcam version 9 build 10,007
;Machining time about 00:02:38 hours

G90
M03 S24000
G00 Z5.0000


;No. 1: Ausschnitt 1
G00 X30.4951 Y11.0023
G00 Z0.5000
G01 Z-1.5000 F200 S24000
G01 X17.9101 Y11.0041 F800
G01 X13.5041 Y15.4101
G01 X13.5000 Y15.4200
G01 Y44.5800
G01 X13.5041 Y44.5899
G01 X17.9101 Y48.9959
G01 X17.9200 Y49.0000
G01 X30.5000
G00 Z-1.1000
G01 X34.5000
G01 Z-1.5000 F200
G01 X47.0800 F800
G01 X47.0899 Y48.9959
G01 X51.4959 Y44.5899
G01 X51.5000 Y44.5800
G01 Y15.4200
G01 X51.4959 Y15.4101
G01 X47.0899 Y11.0041
G01 X47.0800 Y11.0000
G01 X34.4951 Y11.0018
G00 Z-1.1000
G01 X30.4951 Y11.0023
G01 Z-3.0000 F200
G01 X17.9101 Y11.0041 F800
G01 X13.5041 Y15.4101
G01 X13.5000 Y15.4200
G01 Y44.5800
G01 X13.5041 Y44.5899
G01 X17.9101 Y48.9959
G01 X17.9200 Y49.0000
G01 X30.5000
G00 Z-1.1000
G01 X34.5000
G01 Z-3.0000 F200
G01 X47.0800 F800
G01 X47.0899 Y48.9959
G01 X51.4959 Y44.5899
G01 X51.5000 Y44.5800
G01 Y15.4200
G01 X51.4959 Y15.4101
G01 X47.0899 Y11.0041
G01 X47.0800 Y11.0000
G01 X34.4951 Y11.0018
G00 Z-1.1000
G01 X30.4951 Y11.0023
G00 Z-2.5000
G01 Z-4.1000 F200
G01 X17.9101 Y11.0041 F800
G01 X13.5041 Y15.4101
G01 X13.5000 Y15.4200
G01 Y44.5800
G01 X13.5041 Y44.5899
G01 X17.9101 Y48.9959
G01 X17.9200 Y49.0000
G01 X30.5000
G00 Z-1.1000
G01 X34.5000
G00 Z-2.5000
G01 Z-4.1000 F200
G01 X47.0800 F800
G01 X47.0899 Y48.9959
G01 X51.4959 Y44.5899
G01 X51.5000 Y44.5800
G01 Y15.4200
G01 X51.4959 Y15.4101
G01 X47.0899 Y11.0041
G01 X47.0800 Y11.0000
G01 X34.4951 Y11.0018
G00 Z-1.1000
G01 X30.4951 Y11.0023
G00 Z5.0000


;No. 2: Teil 1
G00 X-1.0000 Y27.9900 Z5.0000
G00 Z0.5000
G01 Z-1.5000 F200
G01 Y20.0000 F800
G03 X0.0200 Y19.0000 I1.0003 J0.0001
G01 X1.5000
G01 X1.7929 Y19.2929
G01 X1.5000 Y19.0000
G01 Y5.0000
G03 X2.5200 Y4.0000 I1.0003 J0.0001
G01 X6.5000
G01 X6.7929 Y4.2929
G01 X6.5000 Y4.0000
G01 Y0.0000
G03 X7.5200 Y-1.0000 I1.0003 J0.0001
G01 X30.5100
G00 Z-1.1000
G01 X34.5100
G01 Z-1.5000 F200
G01 X57.5000 F800
G03 X58.5000 Y0.0200 I-0.0001 J1.0003
G01 Y4.0000
G01 X58.2071 Y4.2929
G01 X58.5000 Y4.0000
G01 X62.5000
G03 X63.5000 Y5.0200 I-0.0001 J1.0003
G01 Y19.0000
G01 X63.2071 Y19.2929
G01 X63.5000 Y19.0000
G01 X65.0000
G03 X66.0000 Y20.0200 I-0.0001 J1.0003
G01 Y31.3400
G00 Z-1.1000
G01 Y35.3400
G01 Z-1.5000 F200
G01 Y40.0000 F800
G03 X64.9800 Y41.0000 I-1.0003 J-0.0001
G01 X63.5000
G01 X63.2071 Y40.7071
G01 X63.5000 Y41.0000
G01 Y55.0000
G03 X62.4800 Y56.0000 I-1.0003 J-0.0001
G01 X58.5000
G01 X58.2071 Y55.7071
G01 X58.5000 Y56.0000
G01 Y60.0000
G03 X57.4800 Y61.0000 I-1.0003 J-0.0001
G01 X34.4900
G00 Z-1.1000
G01 X30.4900
G01 Z-1.5000 F200
G01 X7.5000 F800
G03 X6.5000 Y59.9800 I0.0001 J-1.0003
G01 Y56.0000
G01 X6.7929 Y55.7071
G01 X6.5000 Y56.0000
G01 X2.5000
G03 X1.5000 Y54.9800 I0.0001 J-1.0003
G01 Y41.0000
G01 X1.7929 Y40.7071
G01 X1.5000 Y41.0000
G01 X0.0000
G03 X-1.0000 Y39.9800 I0.0001 J-1.0003
G01 Y31.9900
G00 Z-1.1000
G01 Y27.9900
G01 Z-3.0000 F200
G01 Y20.0000 F800
G03 X0.0200 Y19.0000 I1.0003 J0.0001
G01 X1.5000
G01 X1.7929 Y19.2929
G01 X1.5000 Y19.0000
G01 Y5.0000
G03 X2.5200 Y4.0000 I1.0003 J0.0001
G01 X6.5000
G01 X6.7929 Y4.2929
G01 X6.5000 Y4.0000
G01 Y0.0000
G03 X7.5200 Y-1.0000 I1.0003 J0.0001
G01 X30.5100
G00 Z-1.1000
G01 X34.5100
G01 Z-3.0000 F200
G01 X57.5000 F800
G03 X58.5000 Y0.0200 I-0.0001 J1.0003
G01 Y4.0000
G01 X58.2071 Y4.2929
G01 X58.5000 Y4.0000
G01 X62.5000
G03 X63.5000 Y5.0200 I-0.0001 J1.0003
G01 Y19.0000
G01 X63.2071 Y19.2929
G01 X63.5000 Y19.0000
G01 X65.0000
G03 X66.0000 Y20.0200 I-0.0001 J1.0003
G01 Y31.3400
G00 Z-1.1000
G01 Y35.3400
G01 Z-3.0000 F200
G01 Y40.0000 F800
G03 X64.9800 Y41.0000 I-1.0003 J-0.0001
G01 X63.5000
G01 X63.2071 Y40.7071
G01 X63.5000 Y41.0000
G01 Y55.0000
G03 X62.4800 Y56.0000 I-1.0003 J-0.0001
G01 X58.5000
G01 X58.2071 Y55.7071
G01 X58.5000 Y56.0000
G01 Y60.0000
G03 X57.4800 Y61.0000 I-1.0003 J-0.0001
G01 X34.4900
G00 Z-1.1000
G01 X30.4900
G01 Z-3.0000 F200
G01 X7.5000 F800
G03 X6.5000 Y59.9800 I0.0001 J-1.0003
G01 Y56.0000
G01 X6.7929 Y55.7071
G01 X6.5000 Y56.0000
G01 X2.5000
G03 X1.5000 Y54.9800 I0.0001 J-1.0003
G01 Y41.0000
G01 X1.7929 Y40.7071
G01 X1.5000 Y41.0000
G01 X0.0000
G03 X-1.0000 Y39.9800 I0.0001 J-1.0003
G01 Y31.9900
G00 Z-1.1000
G01 Y27.9900
G00 Z-2.5000
G01 Z-4.1000 F200
G01 Y20.0000 F800
G03 X0.0200 Y19.0000 I1.0003 J0.0001
G01 X1.5000
G01 X1.7929 Y19.2929
G01 X1.5000 Y19.0000
G01 Y5.0000
G03 X2.5200 Y4.0000 I1.0003 J0.0001
G01 X6.5000
G01 X6.7929 Y4.2929
G01 X6.5000 Y4.0000
G01 Y0.0000
G03 X7.5200 Y-1.0000 I1.0003 J0.0001
G01 X30.5100
G00 Z-1.1000
G01 X34.5100
G00 Z-2.5000
G01 Z-4.1000 F200
G01 X57.5000 F800
G03 X58.5000 Y0.0200 I-0.0001 J1.0003
G01 Y4.0000
G01 X58.2071 Y4.2929
G01 X58.5000 Y4.0000
G01 X62.5000
G03 X63.5000 Y5.0200 I-0.0001 J1.0003
G01 Y19.0000
G01 X63.2071 Y19.2929
G01 X63.5000 Y19.0000
G01 X65.0000
G03 X66.0000 Y20.0200 I-0.0001 J1.0003
G01 Y31.3400
G00 Z-1.1000
G01 Y35.3400
G00 Z-2.5000
G01 Z-4.1000 F200
G01 Y40.0000 F800
G03 X64.9800 Y41.0000 I-1.0003 J-0.0001
G01 X63.5000
G01 X63.2071 Y40.7071
G01 X63.5000 Y41.0000
G01 Y55.0000
G03 X62.4800 Y56.0000 I-1.0003 J-0.0001
G01 X58.5000
G01 X58.2071 Y55.7071
G01 X58.5000 Y56.0000
G01 Y60.0000
G03 X57.4800 Y61.0000 I-1.0003 J-0.0001
G01 X34.4900
G00 Z-1.1000
G01 X30.4900
G00 Z-2.5000
G01 Z-4.1000 F200
G01 X7.5000 F800
G03 X6.5000 Y59.9800 I0.0001 J-1.0003
G01 Y56.0000
G01 X6.7929 Y55.7071
G01 X6.5000 Y56.0000
G01 X2.5000
G03 X1.5000 Y54.9800 I0.0001 J-1.0003
G01 Y41.0000
G01 X1.7929 Y40.7071
G01 X1.5000 Y41.0000
G01 X0.0000
G03 X-1.0000 Y39.9800 I0.0001 J-1.0003
G01 Y31.9900
G00 Z-1.1000
G01 Y27.9900
G00 Z5.0000
G00 X0.0000 Y0.0000

M05
