;Project Spant6_4mm_Balsa
;Created by Estlcam version 9 build 10,007
;Machining time about 00:00:30 hours

G90
M03 S24000
G00 Z5.0000


;No. 1: Teil 1
G00 X14.5100 Y-1.0000
G00 Z0.5000
G01 Z-1.5000 F200 S24000
G01 X22.5000 F800
G03 X23.5000 Y0.0200 I-0.0001 J1.0003
G01 Y3.0000
G01 X23.2071 Y3.2929
G01 X23.5000 Y3.0000
G01 X25.0000
G03 X26.0000 Y4.0200 I-0.0001 J1.0003
G01 Y9.0000
G03 X24.9800 Y10.0000 I-1.0003 J-0.0001
G01 X18.5000
G01 X18.2071 Y9.7071
G01 X18.5000 Y10.0000
G01 Y14.0000
G03 X17.4800 Y15.0000 I-1.0003 J-0.0001
G01 X14.4900
G00 Z-1.1000
G01 X10.4900
G01 Z-1.5000 F200
G01 X7.5000 F800
G03 X6.5000 Y13.9800 I0.0001 J-1.0003
G01 Y10.0000
G01 X6.7929 Y9.7071
G01 X6.5000 Y10.0000
G01 X0.0000
G03 X-1.0000 Y8.9800 I0.0001 J-1.0003
G01 Y4.0000
G03 X0.0200 Y3.0000 I1.0003 J0.0001
G01 X1.5000
G01 X1.7929 Y3.2929
G01 X1.5000 Y3.0000
G01 Y0.0000
G03 X2.5200 Y-1.0000 I1.0003 J0.0001
G01 X10.5100
G00 Z-1.1000
G01 X14.5100
G01 Z-3.0000 F200
G01 X22.5000 F800
G03 X23.5000 Y0.0200 I-0.0001 J1.0003
G01 Y3.0000
G01 X23.2071 Y3.2929
G01 X23.5000 Y3.0000
G01 X25.0000
G03 X26.0000 Y4.0200 I-0.0001 J1.0003
G01 Y9.0000
G03 X24.9800 Y10.0000 I-1.0003 J-0.0001
G01 X18.5000
G01 X18.2071 Y9.7071
G01 X18.5000 Y10.0000
G01 Y14.0000
G03 X17.4800 Y15.0000 I-1.0003 J-0.0001
G01 X14.4900
G00 Z-1.1000
G01 X10.4900
G01 Z-3.0000 F200
G01 X7.5000 F800
G03 X6.5000 Y13.9800 I0.0001 J-1.0003
G01 Y10.0000
G01 X6.7929 Y9.7071
G01 X6.5000 Y10.0000
G01 X0.0000
G03 X-1.0000 Y8.9800 I0.0001 J-1.0003
G01 Y4.0000
G03 X0.0200 Y3.0000 I1.0003 J0.0001
G01 X1.5000
G01 X1.7929 Y3.2929
G01 X1.5000 Y3.0000
G01 Y0.0000
G03 X2.5200 Y-1.0000 I1.0003 J0.0001
G01 X10.5100
G00 Z-1.1000
G01 X14.5100
G00 Z-2.5000
G01 Z-4.1000 F200
G01 X22.5000 F800
G03 X23.5000 Y0.0200 I-0.0001 J1.0003
G01 Y3.0000
G01 X23.2071 Y3.2929
G01 X23.5000 Y3.0000
G01 X25.0000
G03 X26.0000 Y4.0200 I-0.0001 J1.0003
G01 Y9.0000
G03 X24.9800 Y10.0000 I-1.0003 J-0.0001
G01 X18.5000
G01 X18.2071 Y9.7071
G01 X18.5000 Y10.0000
G01 Y14.0000
G03 X17.4800 Y15.0000 I-1.0003 J-0.0001
G01 X14.4900
G00 Z-1.1000
G01 X10.4900
G00 Z-2.5000
G01 Z-4.1000 F200
G01 X7.5000 F800
G03 X6.5000 Y13.9800 I0.0001 J-1.0003
G01 Y10.0000
G01 X6.7929 Y9.7071
G01 X6.5000 Y10.0000
G01 X0.0000
G03 X-1.0000 Y8.9800 I0.0001 J-1.0003
G01 Y4.0000
G03 X0.0200 Y3.0000 I1.0003 J0.0001
G01 X1.5000
G01 X1.7929 Y3.2929
G01 X1.5000 Y3.0000
G01 Y0.0000
G03 X2.5200 Y-1.0000 I1.0003 J0.0001
G01 X10.5100
G00 Z-1.1000
G01 X14.5100
G00 Z5.0000
G00 X0.0000 Y0.0000

M05
